!!!!SEGMENT: pl-wn--mus-iv-141-999-cim--001-003_zelenski-wladyslaw--sonata-op-5-rondo.krn
!!!cenid: 18xx:3672
!!!COM: Żeleński, Władysław
!!!COM-rismID: pe41024455
!!!CDT: 1837/07/06-1921/01/23
!!!CNT: Polish
!!!OPR: Sonata op. 5
!!!OTL: Rondo
!!!OMV: 003
!!!PDT:
!!!AGN:
!!!YEC: Copyright 2022 Narodowy Instytut Fryderyka Chopina (https://polishscores.org)
!!!YEM: License CC-BY-4.0 (https://creativecommons.org/licenses/by/4.0)
!!!SMS-siglum: PL-Wn
!!!SMS-shelfmark: Mus.IV.141.999 Cim.
!!!SMS-shelfwork: 001-003 M
!!!SMS-variant:
!!!SMS-altvar:
!!!NIFC-rismSourceID:
!!!NIFC-rismChildID:
!!!NIFC-islandoraID: none
!!!URL-pdf-islandora:
!!!URL-scan: https://polona2.pl/item/sonata-per-pianoforte-op-5,NzQ5NTg0MTA/2 @EN{Scan on Polona} @PL{Skany w portalu Polona}
!!!IIIF:
!!!ONB-nifc: UWAGA: części Sonaty: 1. Allegro deciso, 2. Adagio e capriccio, 3. Rondo
!!!AIN: 2 piano
!!!key: g
**kern	**dynam	**kern	**dynam
*part2	*	*part1	*
*staff2	*	*staff1	*
*I"Piano	*	*I"Piano	*
*I'pf	*	*I'pf	*
*ICklav	*	*ICklav	*
*Ipiano	*	*Ipiano	*
*clefF4	*	*clefG2	*
*k[b-e-]	*	*k[b-e-]	*
*g:	*	*g:	*
*M2/4	*	*M2/4	*
!	!	!LO:TX:a:B:t=All|t|o. scherzando. M.M. [quarter]=80. 	!
!	!	!LO:TX:a:B:t=RONDÒ.	!
!	!LO:DY:a	!	!
(32FF#X/KLL	p	32r	.
16.GG/)	.	8r	.
(32BB-/JJk	.	.	.
=1	=1	=1	=1
16.D\LL)	.	4r	.
(32F#X\K	.	.	.
16.G\)	.	.	.
(32B-\JJk	.	.	.
16d\)	.	8r	.
16r	.	.	.
8g>\	.	8b-^/ [8ee-	.
=2	=2	=2	=2
*	*	*^	*
[4f#X>\ [4a>	.	8ee-/L]	4ryy	.
.	.	8dd/J	.	.
16f#>\] 16a>]	.	16aa'/	16ryy	.
32r	.	16r	16r	.
(32CC#X/KLL	.	.	.	.
16.DD/)	.	8r	8ryy	.
(32FF#X/JJk	.	.	.	.
=3	=3	=3	=3	=3
16.AA\LL)	.	4r	2ryy	.
(32C#X\K	.	.	.	.
16.D\)	.	.	.	.
(32F#X\JJk	.	.	.	.
16A\)	.	8r	.	.
16r	.	.	.	.
8c^\	.	8e-^</ 8a	.	.
=4	=4	=4	=4	=4
2B-\	.	8a/L	8.d\	.
.	.	16g/Jk	.	.
.	.	16r	16ryy	.
.	.	16.r	4d\ 4g	.
.	.	(<32dd/KLL	.	.
.	.	16.ff/	.	.
.	.	32ee-/JJk)	.	.
*	*	*v	*v	*
!!LO:LB:g=original	!	!	!
=5	=5	=5	=5
16.r	.	(8dd\L	.
(32A\KLL	.	.	.
16.e-\	.	16cc\Jk)	.
.	.	16r	.
32g\JJk	.	.	.
4f#X\)	.	16.r	.
.	.	32cc\KLL	.
.	.	16.ee-\	.
.	.	32dd\JJk	.
=6	=6	=6	=6
16.r	.	(8cc\L	.
(32G\KLL	.	.	.
16.d\	.	16b-\Jk)	.
.	.	16r	.
32f#X\JJk	.	.	.
4g\)	.	16r	.
!	!	!LO:TX:b:i:t=espress&colon;	!
.	.	(16dd\LL	.
.	.	16cc\	.
.	.	16b-\JJ	.
=7	=7	=7	=7
*^	*	*^	*
4e-\	4ryy	.	16a/LL	4ryy	<
.	.	.	16g/	.	.
.	.	.	16f#X/	.	.
.	.	.	16g/JJ	.	.
8.G/L	4C\	.	16a/LL	8ryy	[ >
.	.	.	16g/JJ	.	.
.	.	.	16b-/LL	8e-\	.
16A/Jk	.	.	16a/JJ)	.	.
*	*	*	*v	*v	*
=8	=8	=8	=8	=8
4B-/	[>4D\	.	(4d/ 4g	.
16A/	16D\]	.	16d/) 16f#X	]
32r	16ryy	.	16r	.
(32FF#X/KLL	.	.	.	.
16.GG/)	8ryy	.	8r	.
(<32BB-/JJk	.	.	.	.
*v	*v	*	*	*
!!LO:LB:g=original	!	!	!
=9	=9	=9	=9
16.D\LL)	.	4r	.
(32F#X\K	.	.	.
16.G\)	.	.	.
(32B-\JJk	.	.	.
16d\)	.	8r	.
16r	.	.	.
*clefG2	*	*	*
8g^/	.	8ee-^\ [8bb-	.
=10	=10	=10	=10
*	*	*^	*
(4f#X/	.	8bb-/L]	[4dd\	.
.	.	8aa/J	.	.
16fn/)	.	16ddd/	16dd\]	.
*clefF4	*	*	*	*
32r	.	16r	16ryy	.
(32EEn/KLL	.	.	.	.
16.FFn/)	.	8r	8ryy	.
(32AA-X/JJk	.	.	.	.
=11	=11	=11	=11	=11
16.D\LL)	.	4r	4ryy	.
(32En\K	.	.	.	.
16.F\)	.	.	.	.
(32A-X\JJk	.	.	.	.
16d\)	.	8r	8ryy	.
16r	.	.	.	.
8f^\	.	[8aa-^X/	8dd\	.
=12	=12	=12	=12	=12
[4e-\	.	8aa-X/L]	[4cc\	.
.	.	[<8gg/J	.	.
16e-\]	.	16gg/] 16eee-	16cc\]	.
16r	.	32r	16ryy	.
.	.	(32gg\KLL	.	.
8r	.	16.ee-\)	8ryy	.
.	.	(32bn\JJk	.	.
*	*	*v	*v	*
!!LO:PB:g=original	!	!	!
=13	=13	=13	=13
16.r	.	8cc\)	.
(32A\KLL	.	.	.
16.c\)	.	8r	.
(32en\JJk	.	.	.
8f\)	.	16.r	.
.	.	(32ff\KLL	.
8r	.	16.dd\)	.
.	.	(32a\JJk	.
=14	=14	=14	=14
16.r	.	8b-\)	.
(32G\KLL	.	.	.
16.B-\)	.	8r	.
(32d\JJk	.	.	.
8e-\)	.	16.r	.
.	.	(32ee-\KLL	.
8r	.	16.cc\)	.
.	.	(32g\JJk	.
=15	=15	=15	=15
*^	*	*	*
8r	8ryy	.	16a-X\)	.
.	.	.	16r	.
!LO:N:vis=4.	!	!	!	!
*	*	*	*ped	*
N[<4C/	4CC\	.	4ee-\ 4aa-X 4eee-	sf
*	*	*	*Xtuplet	*
8E-/	8ryy	.	24ccc\LL	.
.	.	.	24eee-\	.
.	.	.	24ccc\JJ	.
=16	=16	=16	=16	=16
8A-X/	2C\N]	.	24aa-X\LL	.
.	.	.	24ccc\	.
.	.	.	24aa-\JJ	.
(4c/	.	.	24ee-\LL	.
.	.	.	24aa-\	.
.	.	.	24ee-\JJ	.
.	.	.	24cc\LL	.
.	.	.	24ee-\	.
.	.	.	24cc\JJ	.
!	!	!	!	!LO:TX:t=cresc&colon;:dur=3s:ext=ut:problem:text with extention lines
8E-/	.	.	24a-X/LL	<
*	*	*	*Xped	*
.	.	.	24cc/	.
.	.	.	24g/JJ	.
!!LO:LB:g=original	!	!	!	!
=17	=17	=17	=17	=17
!LO:TX:a:i:t=poco a poco	!	!	!	!
16D\) 16c	8ryy	.	16f/	.
16r	.	.	16r	.
*	*	*	*ped	*
N[<4D/	4DD\	.	4ff\ 4bbn 4fff	sf
8F/	8ryy	.	24ddd\LL	.
.	.	.	24fff\	.
.	.	.	24ddd\JJ	.
=18	=18	=18	=18	=18
8Bn/	2D\N]	.	24bbn\LL	.
.	.	.	24ddd\	.
.	.	.	24bb\JJ	.
N[<4d\	.	.	24ff\LL	.
.	.	.	24bb\	.
.	.	.	24ff\JJ	.
.	.	.	24dd\LL	.
.	.	.	24ff\	.
.	.	.	24dd\JJ	.
8F/	.	.	24bn\LL	.
*	*	*	*Xped	*
.	.	.	24dd\	.
.	.	.	24a-X\JJ	.
=19	=19	=19	=19	=19
16E-\ 16dN]	8ryy	.	16g/	.
16r	.	.	16r	.
*	*	*	*ped	*
N[<4E-/	4EE-\	.	4gg\ 4ccc 4eee- 4ggg	sf
8G/	8ryy	.	24eee-\LL	.
.	.	.	24ggg\	.
.	.	.	24eee-\JJ	.
=20	=20	=20	=20	=20
8c/	2E-\N]	.	24ccc\LL	.
.	.	.	24eee-\	.
.	.	.	24ccc\JJ	.
4e-/	.	.	24gg\LL	.
.	.	.	24ccc\	.
.	.	.	24gg\JJ	.
.	.	.	24ee-\LL	.
.	.	.	24gg\	.
.	.	.	24ee-\JJ	.
8G/	.	.	24cc\LL	.
*	*	*	*Xped	*
.	.	.	24ee-\	.
.	.	.	24cc\JJ	.
*v	*v	*	*	*
!!LO:LB:g=original	!	!	!
=21	=21	=21	=21
8E-\ 8c	.	8g/	.
*Xtuplet	*	*	*
(24CC/LL	p	8r	.
24BBBn/	.	.	.
24CC/JJ	.	.	.
24EE-/LL	.	4r	.
24DD/	.	.	.
24EE-/JJ	.	.	.
24GG/LL	.	.	.
24FF#X/	.	.	.
24GG/JJ)	.	.	.
=22	=22	=22	=22
*	*	*^	*
16C\	.	16.r<	4ryy	.
16r	.	.	.	.
.	.	(32D</KLL	.	.
16.C\LL	.	16.E-</)	.	.
32E-\JJk	.	32G</JJk	.	.
16.GG\LL	.	(16.c\LL	8ryy	.
32C\JJk	.	(<32g\JJk	.	.
16.EE-/LL	.	16.cc/LL	[8g\)	.
32GG/JJk	.	32b-/JJk)	.	.
=23	=23	=23	=23	=23
16DD/	.	4a/	8g\L]	.
16r	.	.	.	.
(24DD/LL	.	.	(>16f#X/L	.
24CC#X/	.	.	.	.
.	.	.	16en\JJ)	.
24DD/JJ	.	.	.	.
24FF#X/LL	.	8a/	8d\	.
24EEn/	.	.	.	.
24FF#/JJ	.	.	.	.
24AA/LL	.	8r	8ryy	.
24GG#X/	.	.	.	.
24AA/JJ)	.	.	.	.
=24	=24	=24	=24	=24
16D\	.	16.r<	4ryy	.
16r	.	.	.	.
.	.	(32En</KLL	.	.
(>16.D\LL	.	16.F#X</	.	.
32F#X\JJk)	.	32A</JJk)	.	.
!	!	!LO:TX:i:b:t=sempre	!	!
(16.AA\LL	.	(16.d\LL	8ryy	.
32D\JJk	.	32a\JJk	.	.
16.FF#X/LL	.	16.dd/LL	[8a\	.
32AA/JJk)	.	32cc/JJk)	.	.
!!LO:LB:g=original	!	!	!	!
=25	=25	=25	=25	=25
!	!	!	!	!LO:DY:b:t=più forte
16EE-/	.	[4b-/	8a\L]	f
16r	.	.	.	.
(24EE-/LL	.	.	16g\L	.
24DD/	.	.	.	.
.	.	.	16f\	.
24EE-/JJ	.	.	.	.
24GG/LL	.	8b-/]	8e-\JJ	.
24FF#X/	.	.	.	.
24GG/JJ	.	.	.	.
24BB-/LL	.	8r	8ryy	.
24AA/	.	.	.	.
24BB-/JJ)	.	.	.	.
=26	=26	=26	=26	=26
16E-\	.	16.r	4ryy	.
16r	.	.	.	.
.	.	(32G/KLL	.	.
(16.E-\LL	.	16.B-/	.	.
32G\JJk	.	32e-/JJk)	.	.
16.BB-\LL	.	(16.g\LL	8ryy	.
32E-\JJk	.	32b-\JJk	.	.
16.BBn\LL	.	16.gg/LL	8g\	.
32D\JJk)	.	32ff/JJk)	.	.
=27	=27	=27	=27	=27
!	!	!LO:TX:i:b:t=F con rigore	!	!
(16.C\LL	.	16.ee-/LL	4.g\	.
32E-\K	.	32cc/K	.	.
16.D\	.	16.bn/	.	.
32F\JJk	.	32dd/JJk	.	.
16.E-\LL	.	16.cc/LL	.	.
32G\K	.	32ee-/JJk	.	.
16.F#X\	.	16.ddd/LL	8dd\	.
32A\JJk)	.	32ccc/JJk	.	.
=28	=28	=28	=28	=28
(16.G\LL	.	(16.bb-/LL	4.dd\	.
32B-\K	.	32gg/K	.	.
16.A\	.	16.ff#X/	.	.
32c\JJk	.	32aa/JJk	.	.
16.B-\LL	.	16.gg/LL	.	.
32d\K	.	32bb-/JJk	.	.
*	*	*v	*v	*
*	*	*8va	*
*	*	*^	*
16.d-X\	.	16.ggg/LL	8bb-\	.
32e-\JJk)	.	32eee-/JJk)	.	.
!!LO:LB:g=original	!	!	!	!
=29	=29	=29	=29	=29
(16.c\LL	.	16.aaa/LL	8aa\L	.
32e-\K	.	32eee-/JJk	.	.
16.d-X\	.	16.ggg/LL	8bb-\J	.
32e-\JJk	.	32eee-/JJk	.	.
16.c\LL	.	16.aaa/LL	8aa\L	.
32e-\K	.	32eee-/JJk	.	.
16.d-\	.	16.ggg/LL	8bb-\J	.
32e-\JJk)	.	32eee-/JJk	.	.
*clefG2	*	*	*	*
=30	=30	=30	=30	=30
16.c/LL	.	16.aaa-X/LL	8aa-X\L	.
32e-/JJk	.	32eee-/JJk	.	.
16.c#X/LL	.	16.ggg/LL	8bb-\	.
32g/JJk	.	32eeen/JJk	.	.
*	*	*v	*v	*
*	*	*X8va	*
*	*	*^	*
16.d/LL	.	16.ddd/LL	8dd\	.
32b-/JJk	.	32gg/JJk	.	.
16.d-X/LL	.	16.ccc#X/LL	8cc#X\J	.
32b-/JJk	.	32gg/JJk	.	.
*	*	*v	*v	*
=31	=31	=31	=31
!	!	!	!LO:HP:b:t=dimin.
16d/	.	16.dd\LL 16.ddd	>
16r	.	.	.
.	.	(32bb-\K	.
8r	.	16.gg\)	.
.	.	(32ee-\JJk	.
8r	.	16dd\)	.
.	.	16r	.
*clefF4	*	*	*
!	!	!	!LO:DY:b:t=FF
8DD/ 8D	.	8aa\ 8ccc 8ddd 8fff#X	ff
=32	=32	=32	=32
4GGG/ 4BBB- 4DD 4GG	.	4gg\ 4bb- 4ddd 4ggg	.
4r	.	4r	.
!!LO:PB:g=original	!	!	!
=33	=33	=33	=33
*^	*	*	*
!	!	!LO:DY:a	!	!
[2E-/	4EE-\	p	(4G/ 4g	<
.	4GG\	.	4B-/ 4e-	.
=34	=34	=34	=34	=34
2E-/_	4AA-X\	.	4c/ 4cc	.
.	4FF\	.	[4c/) 4a-X	.
=35	=35	=35	=35	=35
*	*	*	*^	*
(<16.E-/LL]	4BB-\	.	4f/	8c\L]	.
32D/K	.	.	.	.	.
16.F/	.	.	.	8B-\J	.
32D/JJk	.	.	.	.	.
8BB-/L	4ryy	.	[4b-/	[4d\	.
8AA-X/J)	.	.	.	.	.
*v	*v	*	*	*	*
=36	=36	=36	=36	=36
(8GG/L	.	8b-/L]	8d\L]	[ >
8DD/J	.	8a-X/J	8f\J	.
16.EE-/LL	.	8g/	8B-\	]
32DD/K	.	.	.	.
16.EE-/	.	8r	8ryy	.
32GG/JJk)	.	.	.	.
*	*	*v	*v	*
=37	=37	=37	=37
4C\	.	4e-/ 4ee-	<
4E-\ [4c	.	4g/ 4cc	.
=38	=38	=38	=38
*^	*	*^	*
2c/_	4F\	.	4aa-X/	[2a-X\	.
.	4D\	.	4ff/	.	.
!!LO:LB:g=original	!	!	!	!	!
=39	=39	=39	=39	=39	=39
16.c/LL]	4G\	.	4dd/	8a-X\L]	[ >
32Bn/K	.	.	.	.	.
16.d/	.	.	.	8g\	.
32B/JJk	.	.	.	.	.
4G/	8ryy	.	8gg/L	8bn\	.
.	8BBn\	.	8ff/J	8dd\J	.
*v	*v	*	*	*	*
=40	=40	=40	=40	=40
16C/ 16G	.	16cc\ 16ee-	4ryy	]
32ryy	.	16r	.	.
(32BBBn/KLL	.	.	.	.
16.CC/)	.	8r	.	p
(32EE-/JJk	.	.	.	.
16.GG/LL)	.	8r	8ryy	.
(32BBn/K	.	.	.	.
16.C/)	.	(16.ee-/LL	[8g\	.
(32D/JJk	.	32dd/JJk	.	.
=41	=41	=41	=41	=41
16E-\)	.	16g\]) 16cc	8ryy	.
16r	.	16r	.	.
*	*	*v	*v	*
*	*	*8va	*
*	*	*^	*
*	*	*	*ped	*
4CC^/ 4C	.	8ggg/L	24ddd\LL	.
.	.	.	24eee-\	.
.	.	.	24ccc\JJ	.
.	.	8eee-/	24bbn\LL	.
.	.	.	24ccc\	.
.	.	.	24gg\JJ	.
[8EE-^/ [8E-	.	8ccc/J	24ff#X\LL	.
.	.	.	24gg\	.
.	.	.	24ee-\JJ	.
*	*	*v	*v	*
*	*	*X8va	*
!!LO:LB:g=original	!	!	!
=42	=42	=42	=42
*	*	*^	*
8EE-/] 8E-]	.	8gg/L	24dd\LL	.
.	.	.	24ee-\	.
.	.	.	24cc\JJ	.
4GG^/ 4G	.	8ee-/	24bn\LL	.
.	.	.	24cc\	.
.	.	.	24g\JJ	.
.	.	8cc/	24f#X\LL	.
.	.	.	24g\	.
.	.	.	24e-\JJ	.
8CC^/ 8C	.	8g/J	24d\LL	.
.	.	.	24e-\	.
.	.	.	24c\JJ	.
=43	=43	=43	=43	=43
16GGG-X/ 16GG-X	.	16B-/ 16c	4ryy	.
32r	.	16r	.	p
(32DD/KLL	.	.	.	.
16.EE-/)	.	8r	.	.
(32GG-X/JJk	.	.	.	.
16.C\LL)	.	8r	8ryy	.
(32D\K	.	.	.	.
!	!	!	!	!LO:TX:t=crescendo sempre:dur=2e4s:ext=ut:problem:text with extention lines
16.E-\)	.	16.ccc/LL	8cc\	<
(32F\JJk	.	32bb-/JJk	.	.
=44	=44	=44	=44	=44
16G-X\)	.	16cc\ 16aa	8ryy	.
16r	.	16r	.	.
*	*	*v	*v	*
*	*	*8va	*
*	*	*^	*
*	*	*	*ped	*
4AAA^/ 4AA	.	8ggg-X/L	24ccc\LL	.
.	.	.	24eee-\	.
.	.	.	24aa\JJ	.
.	.	8eee-/	24aa\LL	.
.	.	.	24ccc\	.
.	.	.	24gg-X\JJ	.
[8CC^/ [8C	.	8ccc/J	24gg-\LL	.
.	.	.	24aa\	.
.	.	.	24ee-\JJ	.
*	*	*v	*v	*
*	*	*X8va	*
!!LO:LB:g=original	!	!	!
=45	=45	=45	=45
*	*	*^	*
8CC/] 8C]	.	8aa/L	24ee-\LL	.
.	.	.	24gg-X\	.
.	.	.	24cc\JJ	.
4EE-^/ 4E-	.	8gg-X/	24cc\LL	.
.	.	.	24ee-\	.
.	.	.	24a\JJ	.
.	.	8ee-/	24a\LL	.
.	.	.	24cc\	.
.	.	.	24g-X\JJ	.
8AAA^/ 8AA	.	8cc/J	24g-\LL	.
.	.	.	24a\	.
*	*	*	*Xped	*
.	.	.	24e-\JJ	.
=46	=46	=46	=46	=46
16BBB-/ 16BB-	.	16d-X/ 16b-	4ryy	.
32r	.	16r	.	.
!	!LO:DY:a	!	!	!
(32CC/KLL	p	.	.	.
16.DD-X/)	.	8r	.	.
(<32FF/JJk	.	.	.	.
16.BB-\LL)	.	8r	8ryy	.
(32C\K	.	.	.	.
16.D-X\)	.	(16.ff/LL	[8f\	.
(32F\JJk	.	32ee-/JJk	.	.
=47	=47	=47	=47	=47
16B-\)	.	16f/]) 16dd-X	8ryy	.
16r	.	16r	.	.
*	*	*	*ped	*
4BBB-^/ 4BB-	.	8fff/	24ccc\LL	.
.	.	.	24ddd-X\	.
.	.	.	24bb-\JJ	.
.	.	8ddd-/L	24aa\LL	.
.	.	.	24bb-\	.
.	.	.	24ff\JJ	.
[8DD-X^/ [8D-X	.	8bb-/J	24een\LL	.
.	.	.	24ff\	.
.	.	.	24dd-X\JJ	.
!!LO:LB:g=original	!	!	!	!
=48	=48	=48	=48	=48
8DD-X/] 8D-X]	.	8ff/L	24cc\LL	.
.	.	.	24dd-X\	.
.	.	.	24b-\JJ	.
4FF^/ 4F	.	8dd-/	24a\LL	.
.	.	.	24b-\	.
.	.	.	24f\JJ	.
.	.	8b-/	24en\LL	.
.	.	.	24f\	.
.	.	.	24d-X\JJ	.
8DDny^/ 8Dny	.	8f/J	24c\LL	.
.	.	.	24d-\	.
*	*	*	*Xped	*
.	.	.	24B-\JJ	.
*	*	*v	*v	*
=49	=49	=49	=49
24D-X\LL	.	4.dd-X\ 4.ddd-X	pp
24G-X\	.	.	.
24B-\	.	.	.
24d-X\	.	.	.
24B-\	.	.	.
24G-\JJ	.	.	.
24D-\LL	.	.	.
24G-\	.	.	.
24B-\	.	.	.
*	*	*8va	*
24d-\	.	[8gg-X\ [8ggg-X	.
24B-\	.	.	.
24G-\JJ	.	.	.
=50	=50	=50	=50
24D-X\LL	.	16gg-X\LL] 16ggg-X]	.
24A-X\	.	.	.
.	.	16ff\JJ 16fff	.
24c-X\	.	.	.
24f\	.	4ddd-X\ 4dddd-X	.
24c-\	.	.	.
24A-\JJ	.	.	.
24D-\LL	.	.	.
24A-\	.	.	.
24c-\	.	.	.
24f\	.	8aa-X'\ 8aaa-X	.
24c-\	.	.	.
24A-\JJ	.	.	.
*	*	*X8va	*
!!LO:PB:g=original	!	!	!
=51	=51	=51	=51
*	*	*8va	*
24D-X\LL	.	8ccc-X'\L 8cccc-X	.
24A-X\	.	.	.
24c-X\	.	.	.
24f\	.	8ff'\ 8fff	.
24c-\	.	.	.
24A-\JJ	.	.	.
24D-\LL	.	8aa-X'\ 8aaa-X	.
24A-\	.	.	.
24c-\	.	.	.
*	*	*X8va	*
24f\	.	8cc-X'\J 8ccc-	.
24c-\	.	.	.
24A-\JJ	.	.	.
*	*	*Xped	*
=52	=52	=52	=52
*	*	*ped	*
24E-\LL	.	4.b-\ 4.bb-	.
24B-\	.	.	.
24e-\	.	.	.
24g-X\	.	.	.
24e-\	.	.	.
24B-\JJ	.	.	.
24E-\LL	.	.	.
24B-\	.	.	.
24e-\	.	.	.
24g-\	.	[8ee-\ [8eee-	.
24e-\	.	.	.
24B-\JJ	.	.	.
*	*	*Xped	*
=53	=53	=53	=53
*	*	*ped	*
24F\LL	.	16ee-\LL] 16eee-]	.
24B-\	.	.	.
.	.	16dd\JJ 16ddd	.
24d\	.	.	.
24a-X\	.	4bb-\ 4bbb-	.
24d\	.	.	.
24B-\JJ	.	.	.
24F\LL	.	.	.
24B-\	.	.	.
24d\	.	.	.
24a-\	.	8ff'\ 8fff	.
24d\	.	.	.
24B-\JJ	.	.	.
!!LO:LB:g=original	!	!	!
=54	=54	=54	=54
24BB-\LL	.	8aa-X'\L 8aaa-X	.
24F\	.	.	.
24A-X\	.	.	.
24d\	.	8dd'\ 8ddd	.
24A-\	.	.	.
24F\JJ	.	.	.
24BB-\LL	.	8ff'\ 8fff	.
24F\	.	.	.
24A-\	.	.	.
24d\	.	8a-X'\J 8aa-X	.
24A-\	.	.	.
24F\JJ	.	.	.
*	*	*Xped	*
=55	=55	=55	=55
*	*	*ped	*
!	!	!	!LO:TX:t=crescendo sempre:dur=qe2s:ext=ut:problem:text with extention lines
24C-X\LL	.	4.g-X\ 4.gg-X	<
24E-\	.	.	.
24G-X\	.	.	.
24c-X\	.	.	.
24G-\	.	.	.
24E-\JJ	.	.	.
24C-\LL	.	.	.
24E-\	.	.	.
24G-\	.	.	.
24c-\	.	[8cc-X\ [8ccc-X	.
24G-\	.	.	.
24E-\JJ	.	.	.
*	*	*Xped	*
=56	=56	=56	=56
*	*	*ped	*
24D-X\LL	.	16cc-X\LL] 16ccc-X]	.
24G-X\	.	.	.
.	.	16b-\JJ 16bb-	.
24B-\	.	.	.
24f-X\	.	4gg-X\ 4ggg-X	.
24B-\	.	.	.
24G-\JJ	.	.	.
24D-\LL	.	.	.
24G-\	.	.	.
24B-\	.	.	.
24f-\	.	8dd-X'\ 8ddd-X	.
24B-\	.	.	.
24G-\JJ	.	.	.
!!LO:LB:g=original	!	!	!
=57	=57	=57	=57
24GG-X\LL	.	8ff-X'\L 8fff-X	.
24G-X\	.	.	.
24B-\	.	.	.
24f-X\	.	8b-'\ 8bb-	.
24B-\	.	.	.
24G-\JJ	.	.	.
24GG-\LL	.	8dd-X'\ 8ddd-X	.
24D-X\	.	.	.
24F-X\	.	.	.
24B-\	.	8f-X'\J 8ff-	.
24F-\	.	.	.
24D-\JJ	.	.	.
*	*	*Xped	*
=58	=58	=58	=58
!	!	! 	!
!	!	!	!LO:TX:t=sem-pre-più-for-te:dur=2q2e:ext=ut:problem:text with extention lines
24AAn\LL	.	4.e-\ 4.ee-	f
24E-\	.	.	.
24G-X\	.	.	.
24c\	.	.	.
24G-\	.	.	.
24E-\JJ	.	.	.
24AA\LL	.	.	.
24E-\	.	.	.
24G-\	.	.	.
24c\	.	8cc^\ 8ccc	.
24G-\	.	.	.
24E-\JJ	.	.	.
=59	=59	=59	=59
24GG-X\LL	.	8b-\ 8bb-	.
24C\	.	.	.
24E-\	.	.	.
24A\	.	4a\ 4aa	.
24E-\	.	.	.
24C\JJ	.	.	.
24GG-\LL	.	.	.
24C\	.	.	.
24E-\	.	.	.
24A\	.	8ee-^\ 8eee-	.
24E-\	.	.	.
24C\JJ	.	.	.
!!LO:LB:g=original	!	!	!
=60	=60	=60	=60
24EE-/LL	.	8dd-X\ 8ddd-X	.
24AA/	.	.	.
24C/	.	.	.
24G-X/	.	4cc\ 4ccc	.
24C/	.	.	.
24AA/JJ	.	.	.
24CC/LL	.	.	.
24GG-X/	.	.	.
24AA/	.	.	.
24E-/	.	8gg-X^\ 8ggg-X	.
24AA/	.	.	.
24GG-/JJ	.	.	.
=61	=61	=61	=61
24AAA/LL	.	8ff\ 8fff	.
24EE-/	.	.	.
24GG-X/	.	.	.
24C/	.	4ee-\ 4eee-	.
24GG-/	.	.	.
24EE-/JJ	.	.	.
24GGG-X/LL	.	.	.
24CC/	.	.	.
24EE-/	.	.	.
*	*	*8va	*
24AA/	.	8ccc^\ 8cccc	.
24EE-/	.	.	.
24CC/JJ	.	.	.
=62	=62	=62	=62
!	!	!	!LO:DY:b:t=F
16FFF/ 16FF	.	24bb-\LL 24bbb-	f
*	*	*X8va	*
.	.	24aa\	.
16r	.	.	.
.	.	24ccc\JJ	.
8A'\L 8c	.	24ff\LL	.
.	.	24ee-\	.
.	.	24gg-X\JJ	.
8c'\J 8e-	.	24b-/LL	.
.	.	24a/	.
.	.	24cc/JJ	.
8r	.	24f/LL	.
.	.	24e-/	.
.	.	24g-X/JJ	.
!!LO:LB:g=original	!	!	!
=63	=63	=63	=63
8r	.	24B-/LL	.
.	.	24A/	.
.	.	24c/JJ	.
*clefG2	*	*clefF4	*
8a'\L 8cc	.	24F\LL	.
.	.	24E-\	.
.	.	24G-X\JJ	.
8cc'\J 8ee-	.	24BB-/LL	.
.	.	24AA/	.
.	.	24C/JJ	.
8r	.	24FF/LL	.
.	.	24EE-/	.
.	.	24GG-X/JJ	.
*clefF4	*	*	*
=64	=64	=64	=64
!	!	!	!LO:TX:t=di-mi-nuen-do:dur=18s:ext=ut:problem:text with extention lines
2r	.	24FF/LL	>
.	.	24AA/	.
.	.	24C/JJ	.
.	.	24BB-/LL	.
.	.	24AA/	.
.	.	24G-X/JJ	.
.	.	24F\LL	.
.	.	24E-\	.
.	.	24c\JJ	.
*	*	*clefG2	*
.	.	24B-/LL	.
.	.	24A/	.
.	.	24g-X/JJ	.
=65	=65	=65	=65
2r	.	24f/LL	.
.	.	24e-/	.
.	.	24cc/JJ	.
.	.	24b-\LL	.
.	.	24a\	.
.	.	24gg-X\JJ	.
.	.	24ff\LL	.
.	.	24een\	.
.	.	24ggn\JJ	.
.	.	24ff\LL	.
.	.	24ee\	.
.	.	24gg\JJ	.
!!LO:PB:g=original	!	!	!
=66	=66	=66	=66
*	*	*^	*
4r	.	4ryy	16.ff\LL	<
.	.	.	32gg\K	.
.	.	.	16.ee-\	.
.	.	.	32ff\JJk	.
8F\L 8A-X	.	8bbn/L	16.dd\LL	.
.	.	.	32ee-\K	.
8E-\J 8G	.	8ccc/J	16.cc\	.
.	.	.	32dd\JJk	.
*	*	*v	*v	*
=67	=67	=67	=67
*^	*	*	*
4ryy	16.D\LL 16.G	.	8bn\ 8ddd	[
.	32A-X\K	.	.	.
.	16.F\	.	8r	.
.	32G\JJk	.	.	.
8c/L	16.E-\LL	.	8g\L 8gg	>
.	32F\K	.	.	.
8d/J	16.D\	.	8bn\J 8ff	]]
.	32E-\JJk	.	.	.
*v	*v	*	*	*
=68	=68	=68	=68
*	*	*^	*
!	!LO:HP:a	!	!	!
8C\ 8e-	<	16.ee-/LL	8cc\	.
!	!	!	!	!LO:HP:b:t=dimin.
.	.	32ff/K	.	>
8r	.	16.dd/	8ryy	.
.	.	32ee-/JJk	.	.
8E-\L 8G-X	.	8aa/L	16.cc\LL	.
.	.	.	32dd\K	.
8D\J 8F	.	8bb-/J	16.b-\	.
.	.	.	32cc\JJk	.
*	*	*v	*v	*
=69	=69	=69	=69
*^	*	*	*
4ryy	16.C\LL 16.F	[	8a\ 8ccc	.
.	32G\K	.	.	.
.	16.E-\	.	8r	.
.	32F\JJk	.	.	.
8B-/L	16.D\LL	.	8f\L 8ff	>
.	32E-\K	.	.	.
8c/J	16.C\	.	8a\J 8ee-	]]
.	32D\JJk	.	.	.
!!LO:LB:g=original	!	!	!	!
=70	=70	=70	=70	=70
*	*	*	*^	*
!	!	!	!LO:TX:i:b:t=con gran espress.	!	!
!	!	!	!LO:TX:B:a:t=più Moderato. M.M. [quarter]=72.	!	!
16d/	16BB-\	.	16b-\ 16dd	8ryy	.
16r	16ryy	.	16r	.	.
4d/	[4.B-\	.	4b-/	4f\	.
8e-/	.	.	16dd^/LL	8g\	.
.	.	.	16cc/JJ	.	.
=71	=71	=71	=71	=71	=71
8d/L	2B-\_	.	8b-/L	8f\L	.
8e-^/J	.	.	16dd/L	8g\	.
.	.	.	16cc/JJ	.	.
8d/L	.	.	8b-/L	8f\	.
8e-^/J	.	.	16dd/L	8g\J	.
.	.	.	16cc/JJ	.	.
*	*	*	*v	*v	*
=72	=72	=72	=72	=72
16d/	16B-\]	.	16f/LL 16b-	pp
!	!	!	!LO:TX:i:b:t=veloce	!
16r	16ryy	.	32a/L	.
.	.	.	32b-/JJJ	.
16.B-\LL	8ryy	.	32cc#X\LLL	.
.	.	.	32dd\	.
.	.	.	32een\	.
32d\JJk	.	.	32ff\JJJ	.
16.F\LL	4ryy	.	32aa\LLL	.
.	.	.	32bb-\	.
.	.	.	32ccc#X\	.
32B-\JJk	.	.	32ddd\JJJ	.
*	*	*	*8va	*
16.D\LL	.	.	32eeen\LLL	.
.	.	.	32fff\	.
.	.	.	32aaa\	.
32F\JJk	.	.	32bbb-\JJJ	.
*v	*v	*	*	*
=73	=73	=73	=73
8BB-\L	.	32cccc#X\LLL	.
.	.	32dddd\	.
.	.	32gggg\	.
.	.	32ffff\JJJ	.
8F\J 8B- 8d	.	32dddd\LLL	.
.	.	32bbb-\	.
.	.	32fff\	.
.	.	32ddd\JJJ	.
8FF\L	.	32fff\LLL	.
.	.	32eeen\	.
.	.	32ggg\	.
.	.	32fff\JJJ	.
8F\J 8A 8c 8e-	.	32eee-X\LLL	.
.	.	32ccc\	.
.	.	32aa\	.
.	.	32ff\JJJ	.
*	*	*X8va	*
!!LO:LB:g=original	!	!	!
=74	=74	=74	=74
*^	*	*^	*
!	!	!	!LO:TX:i:b:t=espressivo	!	!
8ryy	16BB-\	.	16bb-\	8ryy	p
.	16ryy	.	16r	.	.
4d-X/	[4.B-\	.	4f/ 4b-/	4f/yy	.
8e-/	.	.	16dd-X/LL	8g-X\	.
.	.	.	16cc/JJ	.	.
=75	=75	=75	=75	=75	=75
8d-X/L	2B-\_	.	8b-/L	8f\L	.
8e-^/	.	.	16dd-X/L	8g-X\	.
.	.	.	16cc/JJ	.	.
8d-/	.	.	8b-/L	8f\	.
8e-^/J	.	.	16dd-/L	8g-\J	.
.	.	.	16cc/JJ	.	.
*	*	*	*v	*v	*
=76	=76	=76	=76	=76
16d/	16B-\]	.	16f/LL 16b-	.
16r	16ryy	.	32a/L	.
.	.	.	32b-/JJJ	.
16.B-\LL	8ryy	.	32cc\LLL	pp
.	.	.	32dd-X\	.
.	.	.	32een\	.
32d\JJk	.	.	32ff\JJJ	.
16.F\LL	4ryy	.	32aa\LLL	.
.	.	.	32bb-\	.
.	.	.	32ccc\	.
32B-\JJk	.	.	32ddd-X\JJJ	.
*	*	*	*8va	*
16.D-X\LL	.	.	32eee\LLL	.
.	.	.	32fff\	.
.	.	.	32aaa\	.
32F\JJk	.	.	32bbb-\JJJ	.
*v	*v	*	*	*
=77	=77	=77	=77
8BB-\L	.	32eeee-\LLL	.
.	.	32dddd-X\	.
.	.	32ffff\	.
.	.	32dddd-\JJJ	.
8F\J 8B- 8d-X	.	32bbb-\LLL	.
.	.	32fff\	.
.	.	32ddd-X\	.
.	.	32bb-\JJJ	.
*	*	*X8va	*
8D-\L	.	32ccc-X\LLL	.
.	.	32bb-\	.
.	.	32ddd-X\	.
.	.	32ccc-\JJJ	.
8A-X\J 8c-X 8f	.	32aa-X\LLL	.
.	.	32ff\	.
.	.	32dd-X\	.
.	.	32cc-X\JJJ	.
!!LO:LB:g=original	!	!	!
=78	=78	=78	=78
*^	*	*^	*
16GG-X/	8ryy	.	16b-\	8ryy	.
16ryy	.	.	16r	.	.
4B-/	[4.G-X\	.	4g-X/	4d-X\	p
8c-^X/	.	.	16b-/LL	8e-\	.
.	.	.	16a-X/JJ	.	.
=79	=79	=79	=79	=79	=79
8B-/L	2G-X\_	.	8g-X/L	8d-X\L	.
8c-X^/J	.	.	16b-/L	8e-\J	.
.	.	.	16a-X/JJ	.	.
8B-/L	.	.	8g-/L	8d-\L	.
8c-^/J	.	.	16b-/L	8e-\J	.
.	.	.	16a-/JJ	.	.
*	*	*	*v	*v	*
=80	=80	=80	=80	=80
16B-/	16G-X\]	.	16d-X/LL 16g-X	.
16r	16ryy	.	32f/L	pp
.	.	.	32g-/JJJ	.
16.G-\LL	8ryy	.	32a\LLL	.
.	.	.	32b-\	.
.	.	.	32cc\	.
32B-\JJk	.	.	32dd-X\JJJ	.
16.D-X\LL	4ryy	.	32ff\LLL	.
.	.	.	32gg-X\	.
.	.	.	32aa\	.
32G-\JJk	.	.	32bb-\JJJ	.
16.BB-\LL	.	.	32ccc\LLL	.
.	.	.	32ddd-X\	.
.	.	.	32fff\	.
32D-\JJk	.	.	32ggg-X\JJJ	.
*v	*v	*	*	*
!!LO:LB:g=original	!	!	!
=81	=81	=81	=81
16DDn/	.	16r	.
16r	.	32g\LLL	.
.	.	32a-X\JJJ	.
16.B-\LL	.	32cc#X\LLL	.
.	.	32dd\	.
.	.	32een\	.
32d\JJk	.	32ff\JJJ	.
!	!	!	!LO:TX:t=cre-scen-do:dur=22[32-jek]3s:ext=ut:problem:text with extention lines
16.F\LL	.	32gg\LLL	<
.	.	32aa-X\	.
.	.	32ccc#X\	.
32B-\JJk	.	32ddd\JJJ	.
16.D\LL	.	32eeen\LLL	.
.	.	32fff\	.
.	.	32ggg\	.
32F\JJk	.	32aaa-X\JJJ	.
!!LO:LB:g=original	!	!	!
=82	=82	=82	=82
8EE-\L 8E-	.	16r	.
.	.	32g-X/LLL	.
.	.	32b-/JJJ	.
8E-\J 8G-X 8B-	.	32ee-/LLL	.
.	.	32b-/	.
.	.	32gg-X/	.
.	.	32g-/JJJ	.
8DD-X\L 8D-X	.	16r	.
.	.	32b-\LLL	.
.	.	32ee-\JJJ	.
8Gn\J 8B- 8e-	.	32ggn\LLL	.
.	.	32ee-\	.
.	.	32bb-\	.
.	.	32b-\JJJ	.
=83	=83	=83	=83
8CC-X\L 8C-X	.	16r	.
.	.	32cc-X\LLL	.
.	.	32ee-\JJJ	.
8A-X\J 8c-X 8e-	.	32aa-X\LLL	.
.	.	32ee-\	.
.	.	32ccc-X\	.
.	.	32cc-\JJJ	.
8BBB-\L 8BB-	.	16r	.
.	.	32dd-X\LLL	.
.	.	32gg\JJJ	.
8G\J 8B- 8d-X 8en	.	32bb-\LLL	.
.	.	32gg\	.
.	.	32ddd-X\	.
.	.	32dd-\JJJ	.
=84	=84	=84	=84
!	!	!	!LO:DY:b:t=F
8AAA/ 8AA	.	16r	f
.	.	32ee-\LLL	.
.	.	32gg-X\JJJ	.
4.An\ 4.c 4.e- 4.g-X	.	32ccc\LLL	.
.	.	32gg-\	.
.	.	32eee-\	.
.	.	32ee-\JJJ	.
.	.	32ggg-X\LLL	.
.	.	32gg-\	.
.	.	32eee-\	.
.	.	32ee-\JJJ	.
.	.	32ccc\LLL	.
.	.	32cc\	.
.	.	32aa\	.
.	.	32a\JJJ	.
!!LO:PB:g=original	!	!	!
=85	=85	=85	=85
4r	.	32gg-X\LLL	.
.	.	32g-X\	.
.	.	32ee-\	.
.	.	32e-\JJJ	.
!	!	!	!LO:HP:b:t=dimin.
.	.	32cc/LLL	>
.	.	32c/	.
.	.	32a/	.
.	.	32A/JJJ	.
16r	.	32f/LLL	.
.	.	32F/	.
16EE-/LL 16E-	.	32A/ 32c	.
.	.	32F/JJJ	.
16DD/ 16D	.	32B-/LLL 32d	.
.	.	32F/	.
16CC/JJ 16C	.	32c/ 32e-	.
.	.	32F/JJJ	.
=86	=86	=86	=86
*	*	*^	*
!LO:TX:i:a:t=grazioso e con molto sentimento	!	!	!	!
(8BBB-/L 8BB-	.	32f/LLL	4d\ 4f	.
.	.	32f/	.	.
.	.	32dd/ 32ff	.	.
.	.	32f/JJJ	.	.
16CC/L 16C	.	32cc/LLL 32ee-	.	.
.	.	32f/	.	.
16DD/JJ 16D	.	32b-/ 32dd	.	.
.	.	32f/JJJ	.	.
8EE-/L 8E-	.	32b-/LLL 32dd	4ryy	.
.	.	32g-X/	.	.
.	.	32b-/ 32cc	.	.
.	.	32g-/JJJ	.	.
16GG-X/L 16G-X	.	32e-/LLL 32b-	.	.
.	.	32c/	.	.
16FF/JJ) 16F	.	32e-/ 32a	.	.
.	.	32c/JJJ	.	.
*	*	*v	*v	*
=87	=87	=87	=87
!	!	!LO:N:vis=16	!
(8BBB-/L 8BB-	.	32r	.
.	.	32f/LLL	.
.	.	32dd/ 32ff	.
.	.	32f/JJJ	.
16CC/L 16C	.	32cc/LLL 32ee-	.
.	.	32f/	.
16DD/JJ 16D	.	32b-/ 32dd	.
.	.	32f/JJJ	.
8EE-/L 8E-	.	32b-/LLL 32dd	.
.	.	32g-X/	.
.	.	32b-/ 32cc	.
.	.	32g-/JJJ	.
16GG-X/L 16G-X	.	32e-/LLL 32b-	.
.	.	32c/	.
16FF/JJ) 16F	.	32e-/ 32cc	.
.	.	32c/JJJ	.
!!LO:LB:g=original	!	!	!
=88	=88	=88	=88
8BBB-/L 8BB-	.	32ryy	.
.	.	32f\LLL	.
.	.	32dd\ 32ff	.
.	.	32f\JJJ	.
16CC/L 16C	.	32cc\LLL 32ee-	.
.	.	32f\	.
16DD/JJ 16D	.	32b-\ 32dd	.
.	.	32f\JJJ	.
8EEn/L 8En	.	32b-/LLL 32dd	.
.	.	32g/	.
.	.	32b-/ 32cc#X	.
.	.	32g/JJJ	.
8GG/J 8G	.	32en/LLL 32b-	.
.	.	32c#X/	.
.	.	32e/ 32a	.
.	.	32c#/JJJ	.
=89	=89	=89	=89
8DD/L 8D	.	32r	.
.	.	32a\LLL	.
.	.	32ff\ 32aa	.
.	.	32a\JJJ	.
16EEn/L 16En	.	32een\LLL 32gg	.
.	.	32a\	.
16FF/JJ 16F	.	32dd\ 32ff	.
.	.	32a\JJJ	.
8GG/L 8G	.	32b-\LLL 32ff	.
.	.	32g\	.
.	.	32b-\ 32ee	.
.	.	32g\JJJ	.
8BB-/J 8B-	.	32g/LLL 32dd	.
.	.	32en/	.
.	.	32g/ 32cc	.
.	.	32e/JJJ	.
=90	=90	=90	=90
8AA/L 8A	.	32r	.
.	.	32c/LLL	.
.	.	32f/ 32cc	.
.	.	32c/JJJ	.
!	!	!	!LO:TX:t=crescendo poco a poco:dur=14[32-jek]:ext=ut:problem:text with extention lines
8AA-X/ 8A-X	.	32f/LLL 32dd	<
.	.	32d/	.
.	.	32f/ 32cc	.
.	.	32c/JJJ	.
8GG/ 8G	.	32f/LLL 32cc	.
.	.	32d-X/	.
.	.	32f/ 32b-	.
.	.	32d-/JJJ	.
8EE-/J 8E-	.	32dd-X\LLL 32ff	.
.	.	32g\	.
.	.	32dd-\ 32ee-X	.
.	.	32g\JJJ	.
!!LO:LB:g=original	!	!	!
=91	=91	=91	=91
8C\L 8c	.	32r	.
.	.	32e-/LLL	.
.	.	32a-X/ 32ee-	.
.	.	32e-/JJJ	.
8C-X\ 8c-X	.	32a-/LLL 32ff	.
.	.	32f/	.
.	.	32a-/ 32ee-	.
.	.	32e-/JJJ	.
8BB-\ 8B-	.	32a-/LLL 32ee-	.
.	.	32f-X/	.
.	.	32a-/ 32dd-X	.
.	.	32f-/JJJ	.
8FF#X\J 8F#X	.	32een\LLL 32gg#X	.
.	.	32a#X\	.
.	.	32ee\ 32ff#X	.
.	.	32a#\JJJ	.
=92	=92	=92	=92
8D#X\L 8d#X	.	32r	.
.	.	32f#X\LLL	.
.	.	32bn\ 32ff#X	.
.	.	32f#\JJJ	.
8Dn\ 8dn	.	32b\LLL 32gg#X	.
.	.	32g#X\	.
.	.	32b\ 32ff#	.
.	.	32f#\JJJ	.
8C#X\ 8c#X	.	32b\LLL 32ff#	.
.	.	32gn\	.
.	.	32b\ 32een	.
.	.	32g\JJJ	.
8AA\J 8A	.	32ggn\LLL 32bbn	.
.	.	32cc#X\	.
.	.	32gg\ 32aa	.
.	.	32cc#\JJJ	.
=93	=93	=93	=93
8DD/L 8D	.	32r	.
!	!	!	!LO:DY:b:t=FF
.	.	32aa\LLL	ff
.	.	32fff\ 32aaa	.
.	.	32aa\JJJ	.
16EEn/L 16En	.	32eeen\LLL 32ggg	.
.	.	32aa\	.
16FF/JJ 16F	.	32ddd\ 32fff	.
.	.	32aa\JJJ	.
16FF#X/LL 16F#X	.	32ccc\LLL 32eee-X	.
.	.	32aa\	.
16GG/ 16G	.	32bb-\ 32ddd	.
.	.	32dd\JJJ	.
16AA/ 16A	.	32aa\LLL 32ccc	.
.	.	32dd\	.
16BB-/JJ 16B-	.	32gg\ 32bb-	.
.	.	32dd\JJJ	.
!!LO:LB:g=original	!	!	!
=94	=94	=94	=94
16BBn\LL 16Bn	.	32ffn\LLL 32aa-X	.
.	.	32dd\	.
16C\ 16c	.	32ee-X\ 32gg	.
.	.	32g\JJJ	.
!	!	!	!LO:HP:b:t=dimin.
16D\ 16d	.	32dd\LLL 32ff	>
.	.	32g\	.
16E-\JJ 16e-	.	32cc\ 32ee-	.
.	.	32g\JJJ	.
8EE-/L 8E-	.	32b-\LLL 32dd	.
.	.	32g\	.
.	.	32b-\ 32cc	.
.	.	32g\JJJ	.
8EEn/J 8En	.	32g/LLL 32cc	.
.	.	32c/	.
.	.	32g/ 32b-	.
.	.	32c/JJJ	.
=95	=95	=95	=95
16FF/ 16F	.	16c/ 16f 16a	p
16r	.	16r	.
24F\LL	.	24ff\LL	.
24f\	.	24f\	.
24F\JJ	.	24ff\JJ	.
!	!	!	!LO:DY:b:t=sempre più forte ed accelerando il tempo
24En\LL	.	24gg\LL	f
24en\	.	24g\	.
24E\JJ	.	24gg\JJ	.
24E-X\LL	.	24aa\LL	.
24e-X\	.	24a\	.
24E-\JJ	.	24aa\JJ	.
=96	=96	=96	=96
24D\LL	.	24bb-\LL	.
24d\	.	24b-\	.
24D\JJ	.	24bb-\JJ	.
24C\LL	.	24ccc\LL	.
24c\	.	24cc\	.
24C\JJ	.	24ccc\JJ	.
24BB-\LL	.	24ddd\LL	.
24B-\	.	24dd\	.
24BB-\JJ	.	24ddd\JJ	.
24GG\LL	.	24eeen\LL	.
24G\	.	24een\	.
24GG\JJ	.	24eee\JJ	.
=97	=97	=97	=97
*	*	*8va	*
24FF/LL	.	24fff\LL	.
24F/	.	24ff\	.
24FF/JJ	.	24fff\JJ	.
24EEn/LL	.	24ggg\LL	.
24En/	.	24gg\	.
24EE/JJ	.	24ggg\JJ	.
24EE-X/LL	.	24aaa\LL	.
24E-X/	.	24aa\	.
24EE-/JJ	.	24aaa\JJ	.
24DD/LL	.	24bbb-\LL	.
24D/	.	24bb-\	.
24DD/JJ	.	24bbb-\JJ	.
*	*	*X8va	*
!!LO:LB:g=original	!	!	!
=98	=98	=98	=98
*	*	*8va	*
24CC/LL	.	24cccc\LL	.
24C/	.	24ccc\	.
24CC/JJ	.	24cccc\JJ	.
24BBB-/LL	.	24dddd\LL	.
24BB-/	.	24ddd\	.
24BBB-/JJ	.	24dddd\JJ	.
24AAA/LL	.	24eeee-\LL	.
24AA/	.	24eee-\	.
24AAA/JJ	.	24eeee-\JJ	.
24GGG/LL	.	24eeeen\LL	.
24GG/	.	24eeen\	.
24GGG/JJ	.	24eeee\JJ	.
=99	=99	=99	=99
!	!	!	!LO:DY:b:t=FF
8FFF/ 8FF	.	24fff\LL	ff
.	.	24dddd\ 24ffff	.
.	.	24cccc\JJ 24eeee-	.
[4.F\ [>4.B- [4.d [4.f	.	24bbb-\LL 24dddd	.
.	.	24aaa\ 24cccc	.
.	.	24ggg\JJ 24bbb-	.
.	.	24fff\LL 24aaa	.
.	.	24eee-\ 24ggg	.
.	.	24ddd\JJ 24fff	.
.	.	24ccc\LL 24eee-	.
.	.	24bb-\ 24ddd	.
.	.	24aa\JJ 24ccc	.
*	*	*X8va	*
=100	=100	=100	=100
8F\] 8B-] 8d] 8f]	.	24gg\LL 24bb-	.
.	.	24ff\ 24aa	.
.	.	24ee-\JJ 24gg	.
8r	.	24dd\LL 24ff	.
.	.	24cc\ 24ee-	.
.	.	24b-\JJ 24dd	.
8r	.	16a\ 16cc	.
.	.	16r	.
8FF/ 8F	.	8cc\ 8ee- 8ff 8aa	.
=101	=101	=101	=101
!	!	!LO:TX:b:B:t=Tempo Io.	!
16BBB-/ 16BB-	.	8b-\ 8dd 8ff 8bb-	.
32r	.	.	.
(32AA/KLL	.	.	.
16.BB-/)	.	8r	p
(32D/JJk	.	.	.
16.F\LL)	.	4r	.
(32A\K	.	.	.
16.B-\)	.	.	.
(32d\JJk	.	.	.
!!LO:PB:g=original	!	!	!
=102	=102	=102	=102
*	*	*^	*
16f\)	.	8r	8ryy	.
16r	.	.	.	.
(8a-X\L	.	8ff/L	(8cc\	.
8g\	.	8ee-/	4bn\	.
8f\J	.	8dd/J	.	.
*	*	*v	*v	*
=103	=103	=103	=103
16e-\)	.	8g/) 8cc	.
32r	.	.	.
(32BBBn/KLL	.	.	.
!	!	!	!LO:TX:t=crescendo poco a poco:dur=2eq:ext=ut:problem:text with extention lines
16.CC/)	.	8r	<
(32EE-/JJk	.	.	.
16.GG/LL)	.	4r	.
(32BBn/K	.	.	.
16.C/)	.	.	.
(32E-/JJk	.	.	.
=104	=104	=104	=104
*	*	*^	*
16G\)	.	8r	8ryy	.
16r	.	.	.	.
*clefG2	*	*	*	*
(8g/L	.	8bb-/L	(4.cc#X\	.
8f/	.	8aa/	.	.
8e-/J	.	8gg/J	.	.
*	*	*v	*v	*
=105	=105	=105	=105
16d/)	.	8dd\) 8ff#X	.
*clefF4	*	*	*
32r	.	.	.
(32CC#X/KLL	.	.	.
16.DD/)	.	8r	.
(32FF#X/JJk	.	.	.
16.AA/LL)	.	4r	.
(32C#X/K	.	.	.
16.D/)	.	.	.
(32F#X/JJk	.	.	.
!!LO:LB:g=original	!	!	!
=106	=106	=106	=106
16A\)	.	8r	.
16r	.	.	.
*clefG2	*	*	*
8cc^\L	.	[>8ff#X^\L 8eee-	.
16a\Jk	.	8ff#\J] 8ccc	.
16r	.	.	.
!	!	!	!LO:HP:b:t=dimin.
8f#X^/L	.	16r	>
.	.	[16cc^\LL 16aa	.
=107	=107	=107	=107
16e-/Jk	.	16cc\JJ] 16ff#X	.
16r	.	16r	.
8c^/L	.	[8f#X^/L 8ee-	.
16A/Jk	.	16f#/Jk] 16cc	.
16r	.	16r	.
*clefF4	*	*	*
8F#X^\L	.	[8c^/L 8a	.
=108	=108	=108	=108
16D\Jk	.	16c/Jk] 16f#X	.
16r	.	16r	.
8r	.	[8c/	.
4r	.	(16.c/LL]	.
.	.	32e-/K	.
!	!	!LO:TX:b:i:t=molto	!
.	.	16.a/	>
.	.	32g/JJk)	.
=109	=109	=109	=109
*^	*	*	*
!	!	!	!LO:TX:b:t=rallen-tan-do e dimi-nuen-do:dur=11s10[32-jek]:ext=ut:problem:text with extention lines	!
8r	8ryy	.	(16.f#X/LL	.
.	.	.	32a/K	.
[8e-/L	8G\L	.	16.cc/	.
.	.	.	32b-/JJk)	.
16e-/Jk]	16F#X\Jk	.	(16.a\LL	.
16r	16ryy	.	.	.
.	.	.	32cc\K	.
8r	8ryy	.	16.ee-\	.
.	.	.	32dd\JJk)	.
=110	=110	=110	=110	=110
8r	8ryy	.	(16.cc\LL	.
.	.	.	32ee-\K	.
[8A/L	8C\L	.	16.aa\	.
.	.	.	32gg\JJk	.
16A/Jk]	16D\Jk	.	16.ff#X\LL)	.
16r	16ryy	.	.	.
.	.	.	(32aa\K	.
8r	8ryy	.	16.ccc\)	.
.	.	.	(32ff#\JJk	.
*v	*v	*	*	*
=111	=111	=111	=111
2r	.	16.aa\LL)	.
.	.	(32ee-\K	.
.	.	16.ff#X\)	.
.	.	(32cc\JJk	.
.	.	16.ee-\LL)	.
.	.	(32a\K	]
.	.	16.cc\)	.
.	.	(32f#X\JJk	.
=112	=112	=112	=112
4r	.	16.a/LL)	.
.	.	(32c/JK	.
.	.	8e-;/J)	.
!	!	!LO:TX:b:B:t=a tempo	!
16.r	.	4r	p
(32FF#X/KLL	.	.	.
16.GG/)	.	.	.
(<32BB-/JJk	.	.	.
=113	=113	=113	=113
*	*	*^	*
16.D\LL)	.	4r	4ryy	.
(32F#X\K	.	.	.	.
16.G\)	.	.	.	.
(32B-\JJk	.	.	.	.
16d\)	.	8r	8ryy	.
16r	.	.	.	.
8g^\	.	[8ee-/	8b-^\	.
!!LO:LB:g=original	!	!	!	!
=114	=114	=114	=114	=114
[4f#X\	.	8ee-/L]	[4a\	.
.	.	8dd/J	.	.
16f#\]	.	16aa/	16a\]	.
32r	.	16r	16ryy	.
(32CC#X/KLL	.	.	.	.
16.DD/)	.	8r	8ryy	.
(<32FF#X/JJk	.	.	.	.
=115	=115	=115	=115	=115
16.AA\LL)	.	4r	4ryy	.
(32C#X\K	.	.	.	.
16.D\)	.	.	.	.
(32F#X\JJk	.	.	.	.
16A\)	.	8r	8ryy	.
16r	.	.	.	.
8c\	.	[8a/	8e-\	.
=116	=116	=116	=116	=116
2B-\	.	8a/L]	8.d\	.
.	.	16g/Jk	.	.
.	.	16r	16ryy	.
.	.	16.r	4d\ 4g	.
.	.	(<32dd/KLL	.	.
.	.	16.ff/	.	.
.	.	32ee-/JJk	.	.
*	*	*v	*v	*
=117	=117	=117	=117
16.r	.	8dd\L	.
(32A\KLL	.	.	.
16.e-\	.	16cc\Jk)	.
.	.	16r	.
32g\JJk	.	.	.
4f#X\)	.	16.r	.
.	.	(32cc\KLL	.
.	.	16.ee-\	.
.	.	32dd\JJk	.
!!LO:LB:g=original	!	!	!
=118	=118	=118	=118
16.r	.	8cc\L	.
(32G\KLL	.	.	.
16.d\	.	16b-\Jk)	.
.	.	16r	.
32f#X\JJk	.	.	.
4g\)	.	16r	.
!	!	!LO:TX:b:i:t=espressivo	!
.	.	(16dd\LL	<
.	.	16cc\	.
.	.	16b-\JJ	.
=119	=119	=119	=119
*^	*	*^	*
4ryy	4e-\	.	16a/LL	4ryy	.
.	.	.	16g/	.	.
.	.	.	16f#X/	.	.
.	.	.	16g/JJ	.	[
8.G/L	4C\	.	16a/LL	8ryy	>
.	.	.	16g/	.	.
.	.	.	16b-/	8e-\	]
16A/Jk	.	.	16a/JJ)	.	.
*v	*v	*	*	*	*
=120	=120	=120	=120	=120
([4D\ 4B-	.	4g/	[4d\	.
16D\]) 16A	.	8f#X/	8d\]	.
32r	.	.	.	.
(32FF#X/KLL	.	.	.	.
16.GG/)	.	8r	8ryy	.
(<32BB-/JJk	.	.	.	.
*	*	*v	*v	*
=121	=121	=121	=121
16.D\LL)	.	4r	.
(32F#X\K	.	.	.
16.G\)	.	.	.
(32B-\JJk	.	.	.
16d\)	.	8r	.
16r	.	.	.
8g^\	.	8ee-^\ [8bb-	.
!!LO:PB:g=original	!	!	!
=122	=122	=122	=122
*	*	*^	*
[4f\	.	8bb-/L]	4.dd\	.
.	.	8aa-X/J	.	.
16f\]	.	16fff/	.	.
32r	.	16r	.	.
(32AAA/KLL	.	.	.	.
16.BBB-/)	.	8r	8ryy	.
(32DD/JJk	.	.	.	.
=123	=123	=123	=123	=123
16.FF/LL)	.	4r	4ryy	.
(32AA/K	.	.	.	.
16.BB-/)	.	.	.	.
(32D/JJk	.	.	.	.
16F\)	.	8r	8ryy	.
16r	.	.	.	.
8d^\	.	[8aa-X/	8cc-X^\	.
=124	=124	=124	=124	=124
[4e-\	.	8aa-X/L]	4.b-\	.
.	.	[<8gg/J	.	.
16e-\]	.	16gg/] 16eee-	.	.
32r	.	16r	.	.
(32BBBn/KLL	.	.	.	.
16.CC/)	.	8r	8ryy	.
(32EE-/JJk	.	.	.	.
*	*	*v	*v	*
=125	=125	=125	=125
16.GG/LL)	.	4r	.
(32BBn/K	.	.	.
16.C/)	.	.	.
(32E-/JJk	.	.	.
16G\)	.	8r	.
16r	.	.	.
*clefG2	*	*	*
8cc\	.	8ee-\ 8eee-	.
!!LO:LB:g=original	!	!	!
=126	=126	=126	=126
*	*	*^	*
[4b-\	.	8eee-/L	[4ff\	.
.	.	8ddd-X/J	.	.
16b-\]	.	16fff/	16ff\]	.
*clefF4	*	*	*	*
32r	.	16r	16ryy	.
(32d-X\KLL	.	.	.	.
16.B-\)	.	8r	8ryy	.
(32A-X\JJk	.	.	.	.
*	*	*v	*v	*
=127	=127	=127	=127
16.G\LL)	.	2r	.
(32E-\K	.	.	.
16.D-X\)	.	.	.
(32BB-\JJk	.	.	.
16.GG/LL)	.	.	.
(32EE-/K	.	.	.
16.DD-X/)	.	.	.
(32BBB-/JJk	.	.	.
=128	=128	=128	=128
*^	*	*	*
16AAA-X/)	4ryy	.	8r	.
*ped	*	*	*	*
16r	.	.	.	.
4.AAA-/ [<4.AA-X	.	.	4cc\ 4ee- 4ccc	sf
.	8ryy	.	.	.
.	8C/	.	24aa-X\LL	.
.	.	.	24ccc\	.
.	.	.	24aa-\JJ	.
=129	=129	=129	=129	=129
8F/	2AA-X\]	.	24ff\LL	.
.	.	.	24aa-X\	.
.	.	.	24ff\JJ	.
(4A-X/	.	.	24cc\LL	.
.	.	.	24ff\	.
.	.	.	24cc\JJ	.
.	.	.	24a-X/LL	.
.	.	.	24cc/	.
.	.	.	24a-/JJ	.
*Xped	*	*	*	*
8C/	.	.	24f/LL	.
.	.	.	24a-/	.
.	.	.	24f/JJ	.
!!LO:LB:g=original	!	!	!	!
=130	=130	=130	=130	=130
16BB-\) 16A-X	4ryy	.	16d-X/	.
*ped	*	*	*	*
16r	.	.	16r	.
!	!	!LO:TX:a:t=cres&colon; poco a poco:dur=qh:ext=ut:problem:text with extention lines	!	!
!	!	!LO:HP:a	!	!
4.BBB-/ [<4.BB-	.	<	4dd-X\ 4gg-X 4ddd-X	sf
.	8ryy	.	.	.
.	8D-X/	.	24bb-\LL	.
.	.	.	24ddd-\	.
.	.	.	24bb-\JJ	.
=131	=131	=131	=131	=131
8G-X/	2BB-\]	.	24gg-X\LL	.
.	.	.	24bb-\	.
.	.	.	24gg-\JJ	.
(4Bny/	.	.	24dd-X\LL	.
.	.	.	24gg-\	.
.	.	.	24dd-\JJ	.
.	.	.	24b-\LL	.
.	.	.	24dd-\	.
.	.	.	24b-\JJ	.
*Xped	*	*	*	*
8D-X/	.	.	24g-X/LL	.
.	.	.	24b-/	.
.	.	.	24g-/JJ	.
=132	=132	=132	=132	=132
16C\ 16B-)	8ryy	.	16e-/	.
16r	.	.	16r	.
*ped	*	*	*	*
N[<4C/	4.CC\	.	4ee-\ 4aan 4eee-	sf
8E-/	.	.	24ccc\LL	.
.	.	.	24eee-\	.
.	.	.	24ccc\JJ	.
=133	=133	=133	=133	=133
8A/	2C\N]	.	24aan\LL	.
.	.	.	24ccc\	.
.	.	.	24aa\JJ	.
4c/	.	.	24ee-\LL	.
.	.	.	24aa\	.
.	.	.	24ee-\JJ	.
.	.	.	24cc\LL	.
.	.	.	24ee-\	.
.	.	.	24cc\JJ	.
*Xped	*	*	*	*
8E-/	.	.	24a\LL	.
.	.	.	24cc\	.
.	.	.	24a\JJ	.
*v	*v	*	*	*
!!LO:LB:g=original	!	!	!
=134	=134	=134	=134
16D-X\ 16B-	.	16f/	.
16r	.	16r	.
!	!LO:DY:a	!	!
(24BBB-/LL	p	8r	.
24AAA/	.	.	.
24BBB-/JJ	.	.	.
24DD-X/LL	.	4r	.
24CC/	.	.	.
24DD-/	.	.	.
24FF/	.	.	.
24EEn/	.	.	.
24FF/JJ)	.	.	.
=135	=135	=135	=135
*	*	*^	*
16BB-\	.	16.r<	4ryy	.
16r	.	.	.	.
.	.	(32D-X</KLL	.	.
(<16.BB-\LL	.	16.F</	.	.
32D-X\JJk	.	32B-</JJk	.	.
16.FF/LL	.	16.d-X/LL	8ryy	.
32BB-/K	.	[32f/K	.	.
16.DD-X/	.	16.b-/	[8f\]	.
32EE-/JJk)	.	32a-X/JJk)	.	.
=136	=136	=136	=136	=136
16CC/	.	[4g/	8f\L]	.
16r	.	.	.	.
(24CC/LL	.	.	16en\L	.
24BBBn/	.	.	.	.
.	.	.	16dn\JJ	.
24CC/JJ	.	.	.	.
24EEn/LL	.	8g/]	8c\	.
24DD#X/	.	.	.	.
24EE/	.	.	.	.
24GG/	.	8r	8ryy	.
24FF#X/	.	.	.	.
24GG/JJ)	.	.	.	.
=137	=137	=137	=137	=137
16C\	.	16.r<	4ryy	.
16r	.	.	.	.
.	.	(32En</KLL	.	.
(<16.C\LL	.	16.G</	.	.
32Eny\JJk	.	32c</JJk	.	.
16.GG/LL	.	16.en/LL	8ryy	.
32C/JJk	.	32g/K	.	.
16.EEn/LL	.	16.cc/	[8g\	.
32C/JJk)	.	32b-/JJk)	.	.
!!LO:LB:g=original	!	!	!	!
=138	=138	=138	=138	=138
16FF/	.	[4a-X/	8g\L]	.
16r	.	.	.	.
!	!	!	!LO:TX:b:i:t=sempre più	!
(24FF/LL	.	.	16f\L	.
24EEn/	.	.	.	.
.	.	.	16e-\JJ	.
24FF/JJ	.	.	.	.
!	!LO:TX:t=forte:dur=8s:ext=ut:problem:text with extention lines	!	!	!
!	!LO:DY:a	!	!	!
24AA-X/LL	f	8a-/]	8d-X\	.
24GG/	.	.	.	.
24AA-/JJ	.	.	.	.
24D-X/LL	.	8r	8ryy	.
24C/	.	.	.	.
24D-/JJ)	.	.	.	.
=139	=139	=139	=139	=139
16F\	.	16.r	4ryy	.
16r	.	.	.	.
.	.	(32A-X/KLL	.	.
(16.F\LL	.	16.d-X/	.	.
32A-X\JJk	.	32f/JJk	.	.
16.D-X\LL	.	16.a-X\LL	8ryy	.
32F\JJk	.	32dd-X\JJk	.	.
16.BB-\LL	.	16.ff/LL	[8f\	.
32D-\JJk)	.	32ee-/JJk)	.	.
*	*	*v	*v	*
=140	=140	=140	=140
16GG/	.	16f/] 16b-	.
16r	.	16r	.
(24GG/LL	.	8r	.
24FF#X/	.	.	.
24GG/JJ	.	.	.
24BB-/LL	.	4r	.
24AAn/	.	.	.
24BB-/JJ	.	.	.
24En\LL	.	.	.
24D#X\	.	.	.
24E\JJ)	.	.	.
!!LO:PB:g=original	!	!	!
=141	=141	=141	=141
*	*	*^	*
16E-\	.	16.r	4ryy	.
16r	.	.	.	.
!	!	!	!	!LO:DY:t=F
.	.	(>32en/KLL	.	f
16.En\LL	.	16.g/	.	.
32G\JJk	.	32cc/JJk	.	.
16.C\LL	.	16.een/LL	8ryy	.
32E\JJk	.	32gg/JJk	.	.
16.EEn/LL	.	16.ccc/LL	[8cc\	.
32GG/JJk	.	32bb-/JJk)	.	.
*	*	*v	*v	*
=142	=142	=142	=142
*	*	*ped	*
24FF\LL	.	16cc\] 16aa-X	pp
24A-X\	.	.	.
.	.	16r	.
24c\	.	.	.
24f\	.	4cc\ 4ccc	.
24c\	.	.	.
24A-\JJ	.	.	.
24F\LL	.	.	.
24A-\	.	.	.
24c\	.	.	.
24f\	.	[8ff\ [8fff	.
24c\	.	.	.
24A-\JJ	.	.	.
*	*	*Xped	*
=143	=143	=143	=143
*	*	*ped	*
24F\LL	.	16ff\LL] 16fff]	.
24B-\	.	.	.
.	.	16een\JJ 16eeen	.
24c\	.	.	.
*	*	*8va	*
24en\	.	4ccc\ 4cccc	.
24c\	.	.	.
24B-\JJ	.	.	.
24F\LL	.	.	.
24B-\	.	.	.
24c\	.	.	.
24e\	.	8gg\ 8ggg	.
24c\	.	.	.
24B-\JJ	.	.	.
=144	=144	=144	=144
24C\LL	.	8bb-\L 8bbb-	.
24G\	.	.	.
24B-\	.	.	.
*	*	*X8va	*
24en\	.	8een'\ 8eeen	.
24B-\	.	.	.
24G\JJ	.	.	.
24C\LL	.	8gg'\ 8ggg	.
24G\	.	.	.
24B-\	.	.	.
24e\	.	8b-'\J 8bb-	.
24B-\	.	.	.
24G\JJ	.	.	.
*	*	*Xped	*
!!LO:LB:g=original	!	!	!
=145	=145	=145	=145
*	*	*ped	*
24F\LL	.	8a-X\ 8aa-X	.
24A-X\	.	.	.
24c\	.	.	.
24f\	.	4cc\ 4ccc	.
24c\	.	.	.
24A-\JJ	.	.	.
24E-\LL	.	.	.
24A-\	.	.	.
24c\	.	.	.
!	!	!	!LO:HP:b:t=cres&colon;
24f\	.	[8ff\ [8fff	<
24c\	.	.	.
24A-\JJ	.	.	.
*	*	*Xped	*
=146	=146	=146	=146
*	*	*ped	*
!	!	!LO:TX:b:i:t=poco a poco	!
24D\LL	.	8ff\] 8fff]	.
24A-X\	.	.	.
24c\	.	.	.
24f\	.	4aa-X\ 4aaa-X	.
24c\	.	.	.
24A-\JJ	.	.	.
24D\LL	.	.	.
24Any\	.	.	.
24c\	.	.	.
*	*	*8va	*
24f\	.	8ccc\ 8cccc	.
24c\	.	.	.
24A\JJ	.	.	.
*	*	*Xped	*
=147	=147	=147	=147
*	*	*ped	*
24GG\LL	.	16ccc\LL 16cccc	.
24G\	.	.	.
.	.	16bbn\JJ 16bbbn	.
24Bn\	.	.	.
24f\	.	4fff\ 4ffff	.
24d\	.	.	.
24B\JJ	.	.	.
24G\LL	.	.	.
24B\	.	.	.
24d\	.	.	.
24f\	.	8bbn'\ 8bbbn	.
24d\	.	.	.
24B\JJ	.	.	.
*	*	*Xped	*
=148	=148	=148	=148
*	*	*ped	*
24BBn\LL	.	8ddd'\L 8dddd	.
24F\	.	.	.
24G\	.	.	.
24d\	.	8ff'\J 8fff	.
24G\	.	.	.
24F\JJ	.	.	.
24BB\LL	.	8.aa-X\L 8.aaa-X	.
24F\	.	.	.
24G\	.	.	.
24d\	.	.	.
24G\	.	.	.
.	.	16gg\Jk 16ggg	.
24F\JJ	.	.	.
*	*	*X8va	*
*	*	*Xped	*
!!LO:LB:g=original	!	!	!
=149	=149	=149	=149
*	*	*ped	*
!	!	!LO:TX:i:b:t=sempre più appasionato	!
24C\LL	.	16gg\ 16ggg	.
24E-\	.	.	.
.	.	16r	.
24G\	.	.	.
24c\	.	4g\ 4gg	.
24G\	.	.	.
24E-\JJ	.	.	.
24C\LL	.	.	.
24E-\	.	.	.
24G\	.	.	.
.	.	8qb-/ 8qbb-	.
24c\	.	16a-X\LL 16aa-X	.
24G\	.	.	.
.	.	16g\JJ 16gg	.
24E-\JJ	.	.	.
*	*	*Xped	*
=150	=150	=150	=150
*	*	*ped	*
24D\LL	.	4.g\ 4.gg	.
24G\	.	.	.
24Bn\	.	.	.
24f\	.	.	.
24B\	.	.	.
24G\JJ	.	.	.
24D\LL	.	.	.
24G\	.	.	.
24B\	.	.	.
.	.	8qb-/ 8qbb-	.
24f\	.	16a-X\LL 16aa-X	.
24B\	.	.	.
.	.	16g\JJ 16gg	.
24G\JJ	.	.	.
*	*	*Xped	*
=151	=151	=151	=151
*	*	*ped	*
24E-\LL	.	16g\ 16gg	.
24G\	.	.	.
.	.	16r	.
24c\	.	.	.
24e-\	.	4cc\ 4ccc	.
24c\	.	.	.
24G\JJ	.	.	.
24En\LL	.	.	.
24B-\	.	.	.
24c\	.	.	.
.	.	8qee-/ 8qeee-	.
24g\	.	16dd-X\LL 16ddd-X	.
24c\	.	.	.
.	.	16cc\JJ 16ccc	.
24B-\JJ	.	.	.
*	*	*Xped	*
!!LO:LB:g=original	!	!	!
=152	=152	=152	=152
*	*	*ped	*
24F\LL	.	16cc\ 16ccc	.
24A-X\	.	.	.
.	.	16r	.
24c\	.	.	.
!	!	!	!LO:HP:b:t=dimin.
24f\	.	[8ff\ [8fff	>
24c\	.	.	.
24A-\JJ	.	.	.
*	*	*Xped	*
24D\LL	.	16ff\LL] 16fff]	.
24An\	.	.	.
.	.	16ee-\ 16eee-	.
24c\	.	.	.
24f\	.	16dd\ 16ddd	.
24c\	.	.	.
.	.	16cc\JJ 16ccc	.
24A\JJ	.	.	.
=153	=153	=153	=153
*	*	*^	*
16G\	.	16bn\ 16bbn	4ryy	.
32r	.	16r	.	.
(32FF#X/KLL	.	.	.	.
16.GG/)	.	8r	.	.
(<32BBn/JJk	.	.	.	.
16.D\LL)	.	8r	8ryy	.
(32F#X\K	.	.	.	.
16.G\)	.	16.bbn/LL	[8dd\	.
(32An\JJk	.	32aa/JJk	.	.
=154	=154	=154	=154	=154
16Bn\)	.	16gg/	16dd\]	.
16r	.	16r	16ryy	.
*	*	*v	*v	*
*	*	*8va	*
*	*	*^	*
*	*	*ped	*	*
!	!	!	!	!LO:DY:b:t=mF
4GGG/ 4GG	.	8dddd/L	24aaa#X\LL	mf
.	.	.	24bbbn\	.
.	.	.	24fff\JJ	.
.	.	8bbb/	24eeen\LL	.
.	.	.	24fff\	.
.	.	.	24ddd\JJ	.
[8BBBn/ [8BBn	.	8fff/J	24ccc#X\LL	.
.	.	.	24ddd\	.
.	.	.	24bbn\JJ	.
*	*	*v	*v	*
*	*	*X8va	*
!!LO:LB:g=original	!	!	!
=155	=155	=155	=155
*	*	*^	*
8BBBnX/] 8BBnX]	.	8ddd/L	24aa#X\LL	.
.	.	.	24bbn\	.
.	.	.	24ff\JJ	.
4DD/ 4D	.	8bb/	24een\LL	.
.	.	.	24ff\	.
.	.	.	24dd\JJ	.
.	.	8ff/	24cc#X\LL	.
.	.	.	24dd\	.
.	.	.	24bn\JJ	.
8GGG/ 8GG	.	8dd/J	24a#X\LL	.
.	.	.	24b\	.
.	.	.	24f\JJ	.
*	*	*Xped	*	*
=156	=156	=156	=156	=156
16CC/ 16C	.	8e-/ 8cc	4ryy	.
32r	.	.	.	.
!	!LO:DY:a	!	!	!
(32BBBn/KLL	p	.	.	.
16.CC/)	.	8r	.	.
(32EE-/JJk	.	.	.	.
16.GG/LL)	.	8r	8ryy	.
(32BBn/K	.	.	.	.
16.C/)	.	16.ee-/LL	[8g\	.
[32E-/JJk	.	32dd/JJk	.	.
=157	=157	=157	=157	=157
16E-\]	.	16cc/	16g\]	.
16r	.	16r	16ryy	.
*	*	*v	*v	*
*	*	*8va	*
*	*	*^	*
*	*	*	*ped	*
!	!	!	!	!LO:DY:b:t=mF
4CC/ 4C	.	8eeee-/L	24bbbn\LL	mf
.	.	.	24cccc\	.
.	.	.	24ggg\JJ	.
.	.	8cccc/	24fff#X\LL	.
.	.	.	24ggg\	.
.	.	.	24eee-\JJ	.
[8EE-/ [8E-	.	8ggg/J	24ddd\LL	.
.	.	.	24eee-\	.
.	.	.	24ccc\JJ	.
*	*	*v	*v	*
*	*	*X8va	*
!!LO:PB:g=original	!	!	!
=158	=158	=158	=158
*	*	*^	*
!	!	!	!	!LO:TX:t=sempre piu cre-scen-do:dur=12s2e:ext=ut:problem:text with extention lines
8EE-/] 8E-]	.	8eee-/L	24bbn\LL	<
.	.	.	24ccc\	.
.	.	.	24gg\JJ	.
4GG/ 4G	.	8ccc/	24ff#X\LL	.
.	.	.	24gg\	.
.	.	.	24ee-\JJ	.
.	.	8gg/	24dd\LL	.
.	.	.	24ee-\	.
.	.	.	24cc\JJ	.
8CC/ 8C	.	8ee-/J	24bn\LL	.
.	.	.	24cc\	.
.	.	.	24g\JJ	.
*	*	*	*Xped	*
=159	=159	=159	=159	=159
16FF#X/	.	8e-/ 8cc	4ryy	.
32r	.	.	.	.
32EE#X/KLL	.	.	.	.
16.FF#/	.	8r	.	.
32AA/JJk	.	.	.	.
16.C\LL	.	8r	8ryy	.
32E#X\K	.	.	.	.
16.F#X\	.	16.ccc/LL	[8cc\	.
32A\JJk	.	32aa/JJk	.	.
=160	=160	=160	=160	=160
16c\	.	16ff#X/	16cc\]	.
16r	.	16r	16ryy	.
*	*	*v	*v	*
*	*	*8va	*
*	*	*^	*
*	*	*	*ped	*
4AAA/ 4AA	.	8eeee-/L	24aaa\LL	.
.	.	.	24cccc\	.
.	.	.	24fff#\JJ	.
.	.	8cccc/	24fff#\LL	.
.	.	.	24aaa\	.
.	.	.	24eee-\JJ	.
[8CC/ [8C	.	8aaa/J	24eee-\LL	.
.	.	.	24fff#\	.
.	.	.	24ccc\JJ	.
*	*	*v	*v	*
*	*	*X8va	*
!!LO:LB:g=original	!	!	!
=161	=161	=161	=161
*	*	*8va	*
*	*	*^	*
8CC/] 8C]	.	8fff#X/L	24ccc\LL	.
.	.	.	24eee-\	.
.	.	.	24aa\JJ	.
4EE-/ 4E-	.	8eee-/J	24aa\LL	.
.	.	.	24ccc\	.
.	.	.	24ff#X\JJ	.
*	*	*v	*v	*
*	*	*X8va	*
*	*	*^	*
.	.	8ccc/L	24ff#\LL	.
.	.	.	24aa\	.
.	.	.	24ee-\JJ	.
8FF#X/ 8F#X	.	8aa/J	24ee-\LL	.
.	.	.	24ff#\	.
.	.	.	24cc\JJ	.
*	*	*	*Xped	*
*	*	*v	*v	*
=162	=162	=162	=162
8DD/ 8D	.	(24bn\LL	.
.	.	24cc\	.
.	.	24een\JJ	.
8r	.	24dd\LL	.
.	.	24cc\	.
.	.	24b\JJ)	.
!	!	!	!LO:TX:t=dimin&colon; e rall&colon; un poco:dur=17s:ext=ut:problem:text with extention lines
4r	.	(24g#X/LL	>
.	.	24a/	.
.	.	24cc/JJ	.
.	.	24b/LL	.
.	.	24a/	.
.	.	24gn/JJ)	.
=163	=163	=163	=163
2r	.	(24en/LL	.
.	.	24f#X/	.
.	.	24a/JJ	.
.	.	24g/LL	.
.	.	24f#/	.
.	.	24en/JJ	.
.	.	24d/LL	.
.	.	24e/	.
.	.	24d/JJ	.
.	.	24c/LL	.
.	.	24d/	.
.	.	24c/JJ)	.
!!LO:LB:g=original	!	!	!
=164||	=164||	=164||	=164||
*k[f#]	*	*k[f#]	*
*^	*	*	*
!	!	!	!LO:TX:a:B:t=a tempo	!
2G/	4GG\	p	4B/ 4b	<
.	4BB\	.	4d/ 4g	.
=165	=165	=165	=165	=165
*	*	*	*^	*
[2G/	4C\	.	4ee/	[2e\	.
.	4AA\	.	4cc/	.	.
=166	=166	=166	=166	=166	=166
16.G/LL]	4D\	.	4a/	8e\L]	.
32F#/K	.	.	.	.	.
16.A/	.	.	.	8d\J	.
32F#/JJk	.	.	.	.	.
8D/L	4ryy	.	[4dd/	4f#\	.
8C/J	.	.	.	.	.
=167	=167	=167	=167	=167	=167
4BB/	8BB\L	.	4dd/]	8f#\L	[ >
.	8AA\J	.	.	8fn\J	.
4E/ 4GG#X/	4GG#X/yy	.	16cc/LL	4e\	.
.	.	.	16b/	.	.
.	.	.	16ee/	.	]
.	.	.	16dd/JJ	.	.
*v	*v	*	*	*	*
=168	=168	=168	=168	=168
4AA/ 4E	.	4cc/	2e\	<
4C\ 4A	.	4a/	.	.
=169	=169	=169	=169	=169
*^	*	*	*	*
2A/	4D\	.	4ffn/	[2fn\	.
.	4BB\	.	4dd/	.	.
=170	=170	=170	=170	=170	=170
16.A/LL	4E\	.	4b/	8fn\L]	.
32G#X/K	.	.	.	.	.
16.B/	.	.	.	8e\	.
32G#/JJk	.	.	.	.	.
4E/	8E\L	.	8ee/L	8g#X\	.
.	8GG#X\J	.	[8dd/J	8b\J	.
!!LO:LB:g=original	!	!	!	!	!
=171	=171	=171	=171	=171	=171
4AA/ 4E/	4AA/yy	.	16.dd/LL]	4.e\	[ >
.	.	.	32cc/K	.	.
.	.	.	16.ee/	.	.
.	.	.	32cc/JJk	.	.
8A/L	4C\	.	[4a/	.	.
[8G/J	.	.	.	8e-X\	.
=172	=172	=172	=172	=172	=172
16.G/LL]	4D\	.	4a/]	4d\	]
32F#/K	.	.	.	.	.
16.A/	.	.	.	.	.
32F#/JJk	.	.	.	.	.
4D/	8D\L	.	8dd/L	8f#\L	.
.	8FF#\J	.	8cc/J	8a\J	.
*v	*v	*	*	*	*
=173	=173	=173	=173	=173
!	!	!LO:TX:b:t=legato	!	!
!	!	!	!	!LO:DY:b:t= sempre più forte
16.GG\LL	.	(16.b/LL	4.d\	f
32B\K	.	32g/K	.	.
16.A\	.	16.f#/	.	.
32c\JJk	.	32a/JJk	.	.
16.B\LL	.	16.g/LL	.	.
32d\K	.	32b/K	.	.
16.G#X\	.	16.ee/	[8e\	.
32B\JJk	.	32dd/JJk)	.	.
=174	=174	=174	=174	=174
16.A\LL	.	(16.cc/LL	4.e\]	.
32c\K	.	32a/K	.	.
16.B\	.	16.g#X/	.	.
32d\JJk	.	32b/JJk	.	.
16.c\LL	.	16.a/LL	.	.
32e\K	.	32cc/K	.	.
16.A#X\	.	16.ff#/	[8f#\	.
32c#X\JJk	.	32ee/JJk)	.	.
!!LO:LB:g=original	!	!	!	!
=175	=175	=175	=175	=175
16.B\LL	.	16.dd/LL	4.f#\]	.
32d\K	.	32b/K	.	.
16.c#X\	.	16.a#X/	.	.
32e\JJk	.	32cc#X/JJk	.	.
16.D\LL	.	16.b/LL	.	.
32F#\K	.	32dd/K	.	.
16.D#X\	.	16.bb/	[8b\	.
32F#\JJk	.	32aa/JJk	.	.
=176	=176	=176	=176	=176
16.E\LL	.	16.gg/LL	4b\]	.
32G\K	.	32ee/K	.	.
16.F#\	.	16.dd#X/	.	.
32A\JJk	.	32ff#/JJk	.	.
16.G\LL	.	16.ee/LL	8e\L	.
32B\K	.	32b/K	.	.
16.G#X\	.	16.ddn/	8fn\J	.
32d\JJk	.	32b/JJk	.	.
=177	=177	=177	=177	=177
!	!	!	!	!LO:HP:b:t=dimin.
16.A\LL	.	16.cc/LL	2e\	>
32c\K	.	32a/K	.	.
16.AA\	.	16.cc/	.	.
32F#\JJk	.	32a/JJk	.	.
16.BB\LL	.	16.b/LL	.	.
32G\K	.	32g/K	.	.
16.C\	.	16.a#X/	.	.
32E\JJk	.	32g/JJk	.	.
*	*	*v	*v	*
=178	=178	=178	=178
16BB\ 16F#	.	16d#X/ 16b	.
16r	.	16r	.
(24BBB/LL	.	8r	p
24AAA#X/	.	.	.
24BBB/JJ	.	.	.
24DD#X/LL	.	4r	.
24CC##X/	.	.	.
24DD#/JJ	.	.	.
24FF#/LL	.	.	.
24EE#X/	.	.	.
24FF#/JJ)	.	.	.
!!LO:PB:g=original	!	!	!
=179	=179	=179	=179
*	*	*^	*
16BB\	.	16.r<	4ryy	.
16r	.	.	.	.
.	.	(32D#X</KLL	.	.
16.BB\LL	.	16.F#</	.	.
32D#X\JJk	.	32B</JJk	.	.
16.FF#/LL	.	16.d#X\LL	8ryy	.
32BB/K	.	[<32f#\JJk	.	.
16.DD#X/	.	16.b/LL	8f#\_	.
32BB/JJk	.	32a/JJk)	.	.
=180	=180	=180	=180	=180
!	!	!	!	!LO:HP:b:t=cres&colon; sempre
16EE/	.	[4g/	8f#\L]	<
16r	.	.	.	.
24EE/LL	.	.	16e\L	.
24DD#X/	.	.	.	.
.	.	.	16d#X\JJ	.
24EE/JJ	.	.	.	.
24GG/LL	.	8g/]	8e\	.
24FF#/	.	.	.	.
24GG/JJ	.	.	.	.
24BB/LL	.	8r	8ryy	.
24AA#X/	.	.	.	.
24BB/JJ	.	.	.	.
=181	=181	=181	=181	=181
16E\	.	16.r	4ryy	.
16r	.	.	.	.
.	.	(>32G/KLL	.	.
(16.E\LL	.	16.B/	.	.
32G\JJk	.	32e/JJk	.	.
16.BB\LL	.	16.g/LL	8ryy	.
32E\JJk	.	[32b/JJk	.	.
16.GG#X\LL	.	16.ee/LL	8b\_	.
32E\JJk)	.	32dd/JJk)	.	.
=182	=182	=182	=182	=182
16AA/	.	[4cc/	8b\L]	.
16r	.	.	.	.
(24AA/LL	.	.	16a\L	.
24GG#X/	.	.	.	.
.	.	.	16g#X\J	.
24AA/JJ	.	.	.	.
24C/LL	.	8cc/]	8a\J	.
24BB/	.	.	.	.
24C/JJ	.	.	.	.
24E/LL	.	8r	8ryy	.
24D#X/	.	.	.	.
24E/JJ)	.	.	.	.
!!LO:LB:g=original	!	!	!	!
=183	=183	=183	=183	=183
16A\	.	16.r	4ryy	.
16r	.	.	.	.
.	.	32c/KLL	.	.
16.A\LL	.	16.e/	.	.
32c\JJk	.	32a/JJk	.	.
16.E\LL	.	16.cc/LL	8ryy	.
32A\K	.	32ee/K	.	.
16.AA\	.	16.ccc/	8cc\	.
32E-X\JJk	.	32aa/JJk	.	.
*	*	*v	*v	*
=184	=184	=184	=184
24D\LL	.	8cc\ 8ff#	.
24A\	.	.	.
24c\	.	.	.
24f#\	.	8r	.
24c\	.	.	.
24A\JJ	.	.	.
24D\LL	.	8r	.
24A\	.	.	.
24c\	.	.	.
!	!	!	!LO:DY:b:t=sempre più forte
24f#\	.	(8a^\ 8aa	f
24c\	.	.	.
24A\JJ	.	.	.
=185	=185	=185	=185
24D\LL	.	8g/L 8gg	.
24A\	.	.	.
24c\	.	.	.
24f#\	.	16f#/Jk) 16ff#	.
24c\	.	.	.
.	.	16r	.
24A\JJ	.	.	.
24C\LL	.	8r	.
24F#\	.	.	.
24A\	.	.	.
24e-X\	.	(8cc^\ 8ccc	.
24A\	.	.	.
24F#\JJ	.	.	.
=186	=186	=186	=186
24AA\LL	.	8b-X\L 8bb-X	.
24E-X\	.	.	.
24F#\	.	.	.
24c\	.	16a\Jk) 16aa	.
24F#\	.	.	.
.	.	16r	.
24E-\JJ	.	.	.
24FF#\LL	.	8r	.
24C\	.	.	.
24E-\	.	.	.
24A\	.	(8ee-X^\ 8eee-X	.
24E-\	.	.	.
24C\JJ	.	.	.
!!LO:LB:g=original	!	!	!
=187	=187	=187	=187
24EE-X/LL	.	8dd\L 8ddd	.
24AA/	.	.	.
24C/	.	.	.
24F#/	.	16cc\Jk) 16ccc	.
24C/	.	.	.
.	.	16r	.
24AA/JJ	.	.	.
24CC/LL	.	8r	.
24FF#/	.	.	.
24AA/	.	.	.
24E-X/	.	8aa\ 8aaa	.
24AA/	.	.	.
24FF#/JJ	.	.	.
=188	=188	=188	=188
16DD/	.	24gg\LL 24ggg	.
.	.	24ff#\	.
16r	.	.	.
.	.	24aa\JJ	.
8F#'\L 8A	.	24dd\LL	.
.	.	24cc\	.
.	.	24ee-X\JJ	.
8A'\J 8c	.	24g/LL	.
.	.	24f#/	.
.	.	24a/JJ	.
8r	.	24d/LL	.
.	.	24c/	.
.	.	24e-X/JJ	.
*clefG2	*	*clefF4	*
=189	=189	=189	=189
8r	.	24G\LL	.
.	.	24F#\	.
.	.	24A\JJ	.
8f#'/L 8a	.	24D\LL	.
.	.	24C\	.
.	.	24E-X\JJ	.
8a'/J 8cc	.	24GG/LL	.
.	.	24FF#/	.
.	.	24AA/JJ	.
8r	.	24DD/LL	.
.	.	24CC/	.
.	.	24EE-X/JJ	.
*clefF4	*	*	*
=190	=190	=190	=190
!	!	!	!LO:HP:b:t=dimin.
2r	.	24DD/LL	>
.	.	24FF#/	.
.	.	24AA/JJ	.
.	.	24GG/LL	.
.	.	24FF#/	.
.	.	24E-X/JJ	.
.	.	24D\LL	.
.	.	24C\	.
.	.	24A\JJ	.
.	.	24G\LL	.
.	.	24F#\	.
.	.	24e-X\JJ	.
*	*	*clefG2	*
!!LO:LB:g=original	!	!	!
=191	=191	=191	=191
2r	.	24d/LL	.
.	.	24c/	.
.	.	24a/JJ	.
.	.	24g/LL	.
.	.	24f#/	.
.	.	24ee-X/JJ	.
.	.	24dd\LL	.
.	.	24cc#X\	.
.	.	24eenX\JJ	.
.	.	24dd\LL	.
.	.	24cc#\	.
.	.	24ee\JJ	.
=192	=192	=192	=192
*	*	*^	*
4r	.	4ryy	16.dd\LL	.
.	.	.	32ee\K	.
.	.	.	16.ccn\	.
.	.	.	32dd\JJk	.
8D\L 8Fn	.	8gg#/L	16.b\LL	<
.	.	.	32cc\K	.
8C\J 8E	.	8aa/J	16.a\	.
.	.	.	32b\JJk	.
*	*	*v	*v	*
=193	=193	=193	=193
*^	*	*	*
16.E/LL	4BB\	.	16.g#X 16.bb	[
!	!	!	!LO:N:vis=16	!
32Fn/K	.	.	32r	.
!	!	!	!LO:N:vis=8	!
16.D/	.	.	16.r	.
32E/JJk	.	.	32ryy	.
8A/L	16.C\LL	.	8e\L 8ee	>
.	32D\K	.	.	.
8B/J	16.BB\	.	8g#\J 8dd	]
.	32C\JJk	.	.	.
*v	*v	*	*	*
=194	=194	=194	=194
*	*	*^	*
8AA\ 8c	.	16.cc/LL	8a\	<
.	.	32dd/	.	.
8r	.	16.b/	8r	.
.	.	32cc/JJ	.	.
8C/L 8E-X	.	8ff#/L	16.a\LL	.
.	.	.	32b\K	.
8BB/J 8D	.	8gg/J	16.g\	.
.	.	.	32a\JJk	[
*	*	*v	*v	*
!!LO:LB:g=original	!	!	!
=195	=195	=195	=195
*^	*	*	*
16.D/LL	4AA\	.	8f#\ 8aa	.
32E/K	.	.	.	.
16.C/	.	.	8r	.
32D/JJk	.	.	.	.
8G/L	16.BB\LL	.	8d/L 8dd	>
.	32C\K	.	.	.
8A/J	16.AA\	.	8f#/J 8cc	]]
.	32BB\JJk	.	.	.
=196	=196	=196	=196	=196
*	*	*	*^	*
!	!	!	!LO:TX:B:a:t=più Moderato.	!	!
16GG\ 16B	8ryy	.	16g/ 16b	8ryy	.
16r	.	.	16r	.	.
*clefG2	*	*	*	*	*
!	!	!	!LO:TX:b:i:t=con gran espressione	!	!
4b/	4.g\	.	4gg/	4dd\	p
8cc^/	.	.	16bb/LL	8ee-X^\	.
.	.	.	16aa/JJ	.	.
*v	*v	*	*	*	*
*	*	*v	*v	*
=197	=197	=197	=197
*MM72	*	*MM72	*
*^	*	*^	*
8b/L	2g\	.	8gg/L	8dd\L	.
8cc^/J	.	.	16bb/L	8ee-X^\	.
.	.	.	16aa/JJ	.	.
8b/L	.	.	8gg/L	8dd\	.
8cc^/J	.	.	16bb/L	8ee-^\J	.
.	.	.	16aa/JJ	.	.
*v	*v	*	*	*	*
*	*	*v	*v	*
=198	=198	=198	=198
16g/ 16b	.	16dd\ 16gg	.
*	*	*8va	*
16r	.	32eeee\LLL	pp
.	.	32dddd\JJJ	.
*clefF4	*	*	*
8GG'/L 8BB	.	32cccc#X\LLL	.
.	.	32dddd\	.
.	.	32aaa#X\	.
.	.	32bbb\JJJ	.
8BB'/ 8D	.	32fff#\LLL	.
.	.	32ggg\	.
.	.	32ccccn\	.
.	.	32bbb\JJJ	.
8D'/J 8G	.	32aaa#\LLL	.
.	.	32bbb\	.
.	.	32fff#\	.
.	.	32ggg\JJJ	.
*	*	*X8va	*
!!LO:PB:g=original	!	!	!
=199	=199	=199	=199
*	*	*8va	*
8G'\L 8B	.	32ccc#X\LLL	.
.	.	32ddd\	.
.	.	32aaa\	.
.	.	32ggg\JJJ	.
8B'\ 8d	.	32fff#\LLL	.
.	.	32ggg\	.
.	.	32ccc#\	.
.	.	32ddd\JJJ	.
*	*	*X8va	*
8d'\J 8g	.	32aa#X\LLL	.
.	.	32bb\	.
.	.	32eee\	.
.	.	32ddd\JJJ	.
8r	.	32ccc\LLL	.
.	.	32ddd\	.
.	.	32bb\	.
.	.	32gg\JJJ	.
=200	=200	=200	=200
*^	*	*^	*
!	!	!	!LO:TX:b:i:t=espress.	!	!
8r	8ryy	.	16ee\	4ryy	.
.	.	.	16r	.	.
4c/	[4.A\	.	4e/ 4a	.	.
.	.	.	.	8ryy	.
8d/	.	.	16cc/LL	8fn^\	.
.	.	.	16b/JJ	.	.
=201	=201	=201	=201	=201	=201
8c/L	2A\]	.	8a/L	8e\L	.
8d/	.	.	16cc/L	8fn^\	.
.	.	.	16b/JJ	.	.
8c/	.	.	8a/L	8e\	.
8d/J	.	.	16cc/L	8f^\J	.
.	.	.	16b/JJ	.	.
*v	*v	*	*	*	*
*	*	*v	*v	*
=202	=202	=202	=202
16A\ 16c	.	16e/ 16a	.
*	*	*8va	*
16r	.	32ffffn\LLL	pp
.	.	32eeee\JJJ	.
8AA'/L 8C	.	32dddd#X\LLL	.
.	.	32eeee\	.
.	.	32bbb\	.
.	.	32cccc\JJJ	.
8C'/ 8E	.	32ggg#X\LLL	.
.	.	32aaa\	.
.	.	32dddd#\	.
.	.	32cccc\JJJ	.
8E'/J 8A	.	32bbb\LLL	.
.	.	32cccc\	.
.	.	32ggg#\	.
.	.	32aaa\JJJ	.
!!LO:LB:g=original	!	!	!
=203	=203	=203	=203
8A'\L 8c	.	32ddd#X\LLL	.
.	.	32eee\	.
.	.	32bbb\	.
.	.	32aaa\JJJ	.
8c'\ 8e	.	32ggg#X\LLL	.
.	.	32aaa\	.
.	.	32ddd#\	.
.	.	32eee\JJJ	.
*	*	*X8va	*
8e'\J 8a	.	32bb\LLL	.
.	.	32ccc\	.
.	.	32fffn\	.
.	.	32eee\JJJ	.
8r	.	32ddd#X\LLL	.
.	.	32eee\	.
.	.	32ccc\	.
.	.	32aa\JJJ	.
=204	=204	=204	=204
*^	*	*^	*
!	!	!	!LO:TX:b:i:t=espress.	!	!
8r	8ryy	.	16ff#\	4ryy	.
.	.	.	16r	.	.
4d#X/	[4.B\	.	4f#/ 4b	.	.
.	.	.	.	8ryy	.
8e/	.	.	16dd#X/LL	8g\	.
.	.	.	16cc#X/JJ	.	.
=205	=205	=205	=205	=205	=205
8d/L	4.B\]	.	8b/L	8f#\L	.
8e/	.	.	16dd#X/L	8g^\J	.
.	.	.	16cc#X/JJ	.	.
8d/	.	.	8b/L	8f#\L	.
8e/J	8A#X\	.	16gg/L	8ccny^\J	.
.	.	.	16ff#/JJ	.	.
*v	*v	*	*	*	*
=206	=206	=206	=206	=206
!	!	!	!	!LO:HP:b:t=cres.
16B\ 16d#X	.	16b\ 16ff#	8rdd]	<
16r	.	16r	.	.
*clefG2	*	*	*	*
8e^/L 8g	.	16aa#X/LL	8cc#X^\L	.
.	.	16bb/JJ	.	.
16d#X/Jk 16f#X	.	16bb/	16b\Jk	.
16r	.	16ryy	16r	.
8a^\L 8ccn	.	16ddd#X/LL	8ff#^\L	.
.	.	16eee/JJ	.	.
!!LO:LB:g=original	!	!	!	!
=207	=207	=207	=207	=207
32g\JJ 32b	.	16eee/	32ee\JJ	.
32r	.	.	32r	.
*clefF4	*	*	*	*
(16EE/LL 16E	.	32gg\LLL 32bb	16ryy	.
.	.	32b\JJJ	.	.
!	!	!LO:TX:i:b:t=grazioso e con molto sentimento	!	!
16FF#/ 16F#	.	32ff#\LLL 32aa	8ryy	.
.	.	32b\	.	.
16GG/JJ) 16G	.	32ee\ 32gg	.	.
.	.	32b\JJJ	.	.
(8AA\L 8A	.	32cc\LLL 32gg	4ryy	.
.	.	32a\	.	.
.	.	32cc\ 32ff#	.	.
.	.	32a\JJJ	.	.
16C\L 16c	.	32a/LLL 32ee	.	.
.	.	32f#/	.	.
16BB\JJ) 16B	.	32a/ 32dd#X	.	.
.	.	32f#/JJJ	.	.
*	*	*v	*v	*
=208	=208	=208	=208
16r	.	32r	.
.	.	32b\LLL	.
(16EE\LL 16E	.	32gg\ 32bb	.
.	.	32b\JJJ	.
16FF#\ 16F#	.	32ff#\LLL 32aa	.
.	.	32b\	.
16GG\JJ 16G	.	32ee\ 32gg	.
.	.	32b\JJJ	.
8AA\L 8A	.	32cc\LLL 32gg	.
.	.	32a\	.
.	.	32cc\ 32ff#	.
.	.	32a\JJJ	.
16C\L 16c	.	32a\LLL 32ee	.
.	.	32f#\	.
16BB\JJ) 16B	.	32a\ 32dd#X	.
.	.	32f#\JJJ	.
=209	=209	=209	=209
8CC/L 8C	.	32r	.
.	.	32gg\LLL	.
.	.	32eee\ 32ggg	.
.	.	32gg\JJJ	.
16DD/L 16D	.	32ddd\LLL 32fffn	.
.	.	32gg\	.
16EE/JJ 16E	.	32ccc\ 32eee	.
.	.	32gg\JJJ	.
!	!	!	!LO:HP:b:t=cres&colon;
8FFn/L 8Fn	.	32aa-X\LLL 32eee	<
.	.	32ff#\	.
.	.	32aa-\ 32ddd	.
.	.	32ff#\JJJ	.
16AA-X/L 16A-X	.	32ff#\LLL 32ccc	.
.	.	32dd\	.
16GG/JJ 16G	.	32ff#\ 32bb	.
.	.	32dd\JJJ	.
!!LO:LB:g=original	!	!	!
=210	=210	=210	=210
8CC/L 8C	.	32r	.
.	.	32gg\LLL	.
.	.	32eee\ 32ggg	.
.	.	32gg\JJJ	.
16DD/L 16D	.	32ddd\LLL 32fffn	.
.	.	32gg\	.
16EE/JJ 16E	.	32ccc\ 32eee	.
.	.	32gg\JJJ	.
8AAA/L 8AA	.	32r	.
.	.	32ee\LLL	.
.	.	32ccc\ 32eee	.
.	.	32ee\JJJ	.
16BBB/L 16BB	.	32bb\LLL 32ddd	.
.	.	32ee\	.
16CC/JJ 16C	.	32aa\ 32ccc	.
.	.	32ee\JJJ	.
=211	=211	=211	=211
8FF#\L 8F#	.	32r	.
.	.	32cc\LLL	.
.	.	32aa\ 32ccc	.
.	.	32cc\JJJ	.
!	!	!	!LO:HP:b:t=dimin.
16GG\L 16G	.	32gg\LLL 32bb	>
.	.	32b\	.
16AA\JJ 16A	.	32ff#\ 32aa	.
.	.	32cc\JJJ	.
8DD#X/L 8D#X	.	32r	.
.	.	32a\LLL	.
.	.	32ff#\ 32aa	.
.	.	32a\JJJ	.
16EE/L 16E	.	32ee\LLL 32gg	.
.	.	32b\	.
16FF#/JJ 16F#	.	32dd#X\ 32ff#	.
.	.	32a\JJJ	.
=212	=212	=212	=212
*^	*	*	*
16ryy	8EE\L	.	32r	.
.	.	.	32G/LLL	pp
8E^</L	.	.	32A#X/	.
.	.	.	32c#X/JJJ	.
.	8AA#X\J	.	32e/LLL	.
.	.	.	32g/	.
32D#X/LL	.	.	32f#/	.
32C#X/JJJ	.	.	32e/JJJ	.
16r	8BB\L	.	32r	.
.	.	.	32d#X/LLL	.
8A#X^</L	.	.	32f#/	.
.	.	.	32g/JJJ	.
.	8Dn\J	.	32a/LLL	.
.	.	.	32cc/	.
32G/LL	.	.	32b/	.
32F#/JJJ	.	.	32a/JJJ	.
!!LO:LB:g=original	!	!	!	!
=213	=213	=213	=213	=213
16E/KL	8E\L	.	32r	.
.	.	.	32g#X\LLL	.
8d/	.	.	32b\	.
.	.	.	32cc\JJJ	.
.	8G#X\J	.	32dd\LLL	.
.	.	.	32ffn\	.
32c/LL	.	.	32ee\	.
32B/JJJ	.	.	32dd\JJJ	.
8A/	8A\L	.	32r	.
!	!	!	!	!LO:HP:b:t=cres&colon;
.	.	.	32cc\LLL	<
.	.	.	32ee\	.
.	.	.	32ff#X\JJJ	.
16ryy	8AA\J	.	32aa\LLL	.
.	.	.	32ccc\	.
16r	.	.	32aa\	.
.	.	.	32gg\JJJ	.
*v	*v	*	*	*
=214	=214	=214	=214
8r	.	32ff#\LLL	.
.	.	32dd#X\	.
.	.	32aa\	.
.	.	32cc\JJJ	.
8C'\L 8D#X	.	32dd#\LLL	.
.	.	32cc\	.
.	.	32ff#\	.
.	.	32a\JJJ	.
8D#'\J 8F#	.	32b/LLL	.
.	.	32a/	.
.	.	32cc/	.
.	.	32e/JJJ	.
8r	.	32f#/LLL	.
.	.	32d#X/	.
.	.	32a/	.
.	.	32c/JJJ	.
=215	=215	=215	=215
8r	.	32d#X/LLL	.
.	.	32c/	.
.	.	32f#/	.
.	.	32A/JJJ	.
*clefG2	*	*clefF4	*
8d#X'/L 8f#	.	32B\LLL	.
.	.	32A\	.
.	.	32c\	.
.	.	32E\JJJ	.
8f#'/J 8a	.	32F#\LLL	.
.	.	32D#X\	.
.	.	32A\	.
.	.	32C\JJJ	.
!	!	!	!LO:HP:b:t=dimin.
8r	.	32D#\LLL	>
.	.	32BB\	.
.	.	32F#\	.
.	.	32AA\JJJ	.
*clefF4	*	*	*
!!LO:PB:g=original	!	!	!
=216	=216	=216	=216
16r	.	32GG/LLL	p
*	*	*clefG2	*
.	.	32B/	.
16GG\LL 16G	.	32e/ 32b	.
.	.	32B/JJJ	.
16AA\ 16A	.	32e/LLL 32cc	.
.	.	32c/	.
16GG\JJ 16G	.	32e/ 32b	.
.	.	32B/JJJ	.
8FF#/L 8F#	.	32e/LLL 32b	.
.	.	32c/	.
.	.	32e/ 32a	.
.	.	32c/JJJ	.
8DD/J 8D	.	32cc/LLL 32ee	.
.	.	32f#/	.
.	.	32cc/ 32dd	.
.	.	32f#/JJJ	.
=217	=217	=217	=217
8BB\L 8B	.	32r	.
.	.	32d/LLL	.
.	.	32g/ 32dd	.
.	.	32d/JJJ	.
8AA#X\J 8A#X	.	32g/LLL 32ee	.
.	.	32e/	.
.	.	32g/ 32dd	.
.	.	32d/JJJ	.
!	!	!	!LO:DY:b:t=sempre più forte
8GG/L 8G	.	32a#X/LLL 32dd	f
.	.	32e/	.
.	.	32a#/ 32cc#X	.
.	.	32e/JJJ	.
8AAA#X/J 8AA#	.	32ccny/LLL 32ff#	.
.	.	32f#/	.
.	.	32cc/ 32ee	.
.	.	32f#/JJJ	.
=218	=218	=218	=218
8D\L 8d	.	32r	.
.	.	32f#/LLL	.
.	.	32b/ 32ff#	.
.	.	32f#/JJJ	.
16E\L 16e	.	32b/LLL 32gg	.
.	.	32g/	.
16D\JJ 16d	.	32b/ 32ff#	.
.	.	32f#/JJJ	.
8C#X\L 8c#X	.	32b/LLL 32ff#	.
.	.	32g/	.
.	.	32b/ 32ee	.
.	.	32g/JJJ	.
8AA\J 8A	.	32gg\LLL 32bb	.
.	.	32cc#X\	.
.	.	32gg\ 32aa	.
.	.	32cc#\JJJ	.
!!LO:LB:g=original	!	!	!
=219	=219	=219	=219
8D\L 8d	.	32ff#\LLL 32bb	.
.	.	32dd\	.
.	.	32ff#\ 32aa	.
.	.	32dd\JJJ	.
8C#X\J 8c#X	.	32gg\LLL 32bb	.
.	.	32ee\	.
.	.	32gg\ 32aa	.
.	.	32ee\JJJ	.
8D\L 8d	.	32ff#\LLL 32bb	.
.	.	32dd\	.
.	.	32ff#\ 32aa	.
.	.	32dd\JJJ	.
8DD\J 8D	.	32aa\LLL 32eee	.
.	.	32ff#\	.
.	.	32aa\ 32ddd	.
.	.	32ff#\JJJ	.
=220	=220	=220	=220
!	!	!	!LO:DY:b:t=FF
2BBB/ 2GG 2D	.	16gg\ 16ddd 16ggg	ff
*	*	*8va	*
.	.	32fff#\LLL	.
.	.	32ggg\JJJ	.
.	.	32ccc#X\LLL	.
.	.	32ddd\	.
.	.	32aa#X\	.
.	.	32bb\JJJ	.
*	*	*X8va	*
.	.	32ff#\LLL	.
.	.	32gg\	.
.	.	32ccc#X\	.
.	.	32ddd\JJJ	.
.	.	32aa#X\LLL	.
.	.	32bb\	.
.	.	32ff#\	.
.	.	32gg\JJJ	.
=221	=221	=221	=221
2CC/ 2GG 2E	.	32dd#X\LLL	.
.	.	32ee\	.
.	.	32ddd#X\	.
.	.	32eee\JJJ	.
.	.	32bb\LLL	.
.	.	32ccc\	.
.	.	32ff#\	.
.	.	32gg\JJJ	.
.	.	32dd#\LLL	.
.	.	32ee\	.
.	.	32b\	.
.	.	32cc\JJJ	.
.	.	32g#X/LLL	.
.	.	32a/	.
.	.	32e/	.
.	.	32ee/JJJ	.
!!LO:LB:g=original	!	!	!
=222	=222	=222	=222
32DD/ 32GG 32BB 32D	.	32d/ 32g 32b 32dd	.
32r	.	32r	.
*	*	*clefF4	*
(32CC#X/LLL	.	(32C#X/LLL	.
32DD/JJJ)	.	32D/JJJ)	.
(32FF#/LLL	.	(32F#\LLL	.
32GG/JJJ)	.	32G\JJJ)	.
(32AA#X/LLL	.	(32A#X\LLL	.
32BB/JJJ)	.	32B\JJJ)	.
(32C#X/LLL	.	(32c#X\LLL	.
32D/JJJ)	.	32d\JJJ)	.
*	*	*clefG2	*
(32F#\LLL	.	(32f#/LLL	.
32G\JJJ)	.	32g/JJJ)	.
(32A#X\LLL	.	(32a#X/LLL	.
32B\JJJ)	.	32b/JJJ)	.
(32c#X\LLL	.	(32cc#X\LLL	.
32d\JJJ)	.	32dd\JJJ)	.
*clefG2	*	*	*
=223	=223	=223	=223
(32f#/LLL	.	(32ff#\LLL	.
32g/JJJ)	.	32gg\JJJ)	.
(32a#X\LLL	.	(32aa#X\LLL	.
32b\JJJ)	.	32bb\JJJ)	.
(32cc#X\LLL	.	(32ccc#X\LLL	.
32dd\JJJ)	.	32ddd\JJJ)	.
(32ff#\LLL	.	(32fff#\LLL	.
32gg\JJJ)	.	32ggg\JJJ)	.
16bb\	.	16bbb\	.
16r	.	16r	.
*clefF4	*	*	*
8DD/ 8D	.	8a\ 8cc 8dd 8ff#	.
=224	=224	=224	=224
!	!	!LO:TX:a:B:t=tempo Io.	!
16.EE/LL 16.E	.	8g\ 8a 8cc#X 8gg	.
(32DD#X/K	.	.	.
16.EE/)	p	8r	.
(32GG/JJk	.	.	.
16.AA/LL)	.	4r	.
(32D#X/K	.	.	.
16.E/)	.	.	.
(<32G/JJk	.	.	.
=225	=225	=225	=225
*^	*	*^	*
16A\)	8ryy	.	8r	8ryy	.
16r	.	.	.	.	.
*clefG2	*	*	*	*	*
(8g/L	8g\L	.	8bb/L	(8cc#X\L	.
8a/	8f#\	.	8aa/	8dd\	.
8b-X/J)	8c#X\J	.	8gg/J	8ee\J)	.
*v	*v	*	*	*	*
*	*	*v	*v	*
=226	=226	=226	=226
16d/ 16a	.	16dd\ 16ff#	.
*clefF4	*	*	*
32r	.	16r	.
(32EE#X/KLL	.	.	.
16.FF#/)	.	8r	.
(<32AA/JJk	.	.	.
16.C\LL)	.	4r	.
(32E#X\K	.	.	.
16.F#\)	.	.	.
(32A\JJk	.	.	.
=227	=227	=227	=227
*^	*	*^	*
16c\)	8ryy	.	8r	8ryy	.
16r	.	.	.	.	.
*clefG2	*	*	*	*	*
!	!	!	!	!	!LO:HP:b:t=cres&colon;
8a/L	8a\L	.	8ccc/L	8dd#X\L	<
8b/	8g\	.	8bb/	8ee\	.
8cc/J	8d#X\J	.	8aa/J	8ff#\J	.
*v	*v	*	*	*	*
*	*	*v	*v	*
=228	=228	=228	=228
16d/ 16b	.	16ffn\ 16gg#X	.
*clefF4	*	*	*
32r	.	16r	.
32FF##X/KLL	.	.	.
16.GG#X/	.	8r	.
32BB/JJk	.	.	.
16.D\LL	.	4r	.
32F##X\K	.	.	.
16.G#X\	.	.	.
32B\JJk	.	.	.
!!LO:LB:g=original	!	!	!
=229	=229	=229	=229
*^	*	*^	*
16d\	8ryy	.	8r	8ryy	.
16r	.	.	.	.	.
*clefG2	*	*	*	*	*
*v	*v	*	*	*	*
*	*	*v	*v	*
*	*	*8va	*
*^	*	*^	*
8dd/L	8dd\L	.	8fffn/L	8gg#X\L	.
8ee/	8cc\	.	8eee/	8aa\	.
8dd/J	8b\J	.	8ggg#X/J	8ddd\J	.
*v	*v	*	*	*	*
*	*	*v	*v	*
=230	=230	=230	=230
16a\ 16ee	.	16ccc\ 16aaa	.
*clefF4	*	*	*
*	*	*X8va	*
32r	.	32r	.
!	!	!	!LO:DY:b:t=sempre più forte
(32G#X\KLL 32B	.	(32dd\KLL 32ffn	f
16.A\) 16.c	.	16.cc\) 16.ee	.
(32B\JJk 32d	.	(32b\JJk 32dd	.
16.c\LL) 16.e	.	16.a/LL) 16.cc	.
(32F#\K 32A	.	(32cc/K 32ee-X	.
16.G#\) 16.B	.	16.b/) 16.dd	.
(32A\JJk 32c	.	(32a/JJk 32cc	.
=231	=231	=231	=231
16.B\) 16.d	.	16g/) 16b	.
.	.	32r	.
(32D#X\LLK 32F#	.	(32aa\KLL 32ccc	.
16.E\) 16.G	.	16.gg\) 16.bb	.
(32F#\JJk 32A	.	(32ff#\JJk 32aa	.
16.G/LL) 16.B	.	16.ee\LL) 16.gg	.
(32CC#X/K 32C#X	.	(32gg\K 32bb-X 32ggg	.
16.EE/) 16.E	.	16.gg\) 16.bb- 16.fff#	.
32GG/JJk 32G	.	(32gg\JJk 32bb- 32eee	.
=232	=232	=232	=232
16D\ 16G 16B 16d	.	16dd\) 16gg 16bb 16ddd	.
16r	.	16r	.
*clefG2	*	*	*
*ped	*	*8va	*
!	!	!	!LO:DY:b:t=FF
24bb\LL	.	24bbb\LL	ff
24ddd\	.	24dddd\	.
24bb\JJ	.	24bbb\JJ	.
!	!	!LO:TX:b:i:t=accelerando	!
24gg\LL	.	24ggg\LL	.
24bb\	.	24bbb\	.
24gg\JJ	.	24ggg\JJ	.
24dd\LL	.	24ddd\LL	.
24gg\	.	24ggg\	.
24dd\JJ	.	24ddd\JJ	.
*	*	*X8va	*
!!LO:LB:g=original	!	!	!
=233	=233	=233	=233
*	*	*8va	*
!	!	!LO:TX:b:i:t=sempre il tempo	!
24b\LL	.	24bb\LL	.
24dd\	.	24ddd\	.
24b\JJ	.	24bb\JJ	.
24g/LL	.	24gg/LL	.
24b/	.	24bb/	.
24g/JJ	.	24gg/JJ	.
*	*	*X8va	*
24d/LL	.	24dd\LL	.
24g/	.	24gg\	.
24d/JJ	.	24dd\JJ	.
*clefF4	*	*	*
24B\LL	.	24b\LL	.
24d\	.	24dd\	.
24B\JJ	.	24b\JJ	.
=234	=234	=234	=234
24G\LL	.	24g/LL	.
24B\	.	24b/	.
24G\JJ	.	24g/JJ	.
24D\LL	.	24d/LL	.
24G\	.	24g/	.
24D\JJ	.	24d/JJ	.
*	*	*clefF4	*
24BB/LL	.	24B\LL	.
24D/	.	24d\	.
24BB/JJ	.	24B\JJ	.
24GG/LL	.	24G\LL	.
24BB/	.	24B\	.
24GG/JJ	.	24G\JJ	.
=235	=235	=235	=235
*Xped	*	*	*
16DD/	.	16D\	.
16r	.	16r	.
8r	.	8r	.
*	*	*clefG2	*
4DD/ 4D	.	4a\ 4cc 4dd 4ff#	.
=236	=236	=236	=236
4GGG/ 4GG	.	4g\ 4b 4dd 4gg	.
4r	.	4r	.
==	==	==	==
*-	*-	*-	*-
!!!system-decoration: {(s1,s2)}
!!!RDF**kern: > = above
!!!RDF**kern: < = below
!!!RDF**kern: N = linked
!!!ENC: Andrzej Gręziak
!!!END: 2022-06-01
!!!ENC: Natalia Wrzos
!!!END: 2022-08-16
